{
 "compressionlevel": -1,
 "height": 32,
 "infinite": false,
 "orientation": "orthogonal",
 "renderorder": "right-down",
 "tiledversion": "1.10.2",
 "tileheight": 32,
 "tilewidth": 32,
 "type": "map",
 "version": "1.10",
 "width": 48,
 "nextlayerid": 20,
 "nextobjectid": 635,
 "tilesets": [
  {
   "firstgid": 1,
   "columns": 16,
   "image": "textures/Room_Builder_Office_32x32.png",
   "imageheight": 448,
   "imagewidth": 512,
   "margin": 0,
   "name": "Room_Builder_Office_32x32",
   "spacing": 0,
   "tilecount": 224,
   "tiledversion": "1.11.2",
   "tileheight": 32,
   "tilewidth": 32,
   "type": "tileset",
   "version": "1.10"
  },
  {
   "firstgid": 225,
   "columns": 16,
   "image": "textures/Modern_Office_Black_Shadow_32x32.png",
   "imageheight": 1696,
   "imagewidth": 512,
   "margin": 0,
   "name": "Modern_Office_Black_Shadow_32x32",
   "spacing": 0,
   "tilecount": 848,
   "tiledversion": "1.11.2",
   "tileheight": 32,
   "tilewidth": 32,
   "type": "tileset",
   "version": "1.10"
  },
  {
   "columns": 1,
   "firstgid": 1073,
   "image": "items/chair.png",
   "imageheight": 1472,
   "imagewidth": 32,
   "margin": 0,
   "name": "chair",
   "spacing": 0,
   "tilecount": 23,
   "tileheight": 64,
   "tilewidth": 32
  }
 ],
 "layers": [
  {
   "data": [
    0,
    0,
    0,
    0,
    0,
    0,
    0,
    0,
    0,
    0,
    0,
    0,
    0,
    0,
    0,
    0,
    0,
    0,
    0,
    0,
    0,
    0,
    0,
    0,
    0,
    0,
    0,
    0,
    0,
    0,
    0,
    0,
    0,
    0,
    0,
    0,
    0,
    0,
    0,
    0,
    0,
    0,
    0,
    0,
    0,
    0,
    0,
    0,
    0,
    0,
    0,
    0,
    0,
    0,
    0,
    0,
    0,
    0,
    0,
    0,
    0,
    0,
    0,
    0,
    0,
    0,
    0,
    0,
    0,
    0,
    0,
    0,
    0,
    0,
    0,
    0,
    0,
    0,
    0,
    0,
    0,
    0,
    0,
    0,
    0,
    0,
    0,
    0,
    0,
    0,
    0,
    0,
    0,
    0,
    0,
    0,
    0,
    94,
    95,
    95,
    95,
    95,
    95,
    95,
    95,
    95,
    95,
    95,
    95,
    95,
    0,
    91,
    92,
    92,
    92,
    92,
    92,
    92,
    92,
    92,
    92,
    92,
    92,
    92,
    92,
    92,
    92,
    92,
    92,
    92,
    92,
    92,
    92,
    92,
    92,
    92,
    92,
    92,
    92,
    92,
    92,
    92,
    92,
    0,
    0,
    110,
    111,
    111,
    111,
    111,
    111,
    111,
    111,
    111,
    111,
    111,
    111,
    111,
    0,
    107,
    108,
    108,
    108,
    108,
    108,
    108,
    108,
    108,
    108,
    108,
    108,
    108,
    108,
    108,
    108,
    108,
    108,
    108,
    108,
    108,
    108,
    108,
    108,
    108,
    108,
    108,
    108,
    108,
    108,
    108,
    108,
    0,
    0,
    110,
    111,
    111,
    111,
    111,
    111,
    111,
    111,
    111,
    111,
    111,
    111,
    111,
    0,
    107,
    108,
    108,
    108,
    108,
    108,
    108,
    108,
    108,
    108,
    108,
    108,
    108,
    108,
    108,
    108,
    108,
    108,
    108,
    108,
    108,
    108,
    108,
    108,
    108,
    108,
    108,
    108,
    108,
    108,
    108,
    108,
    0,
    0,
    110,
    111,
    111,
    111,
    111,
    111,
    111,
    111,
    111,
    111,
    111,
    111,
    111,
    0,
    107,
    108,
    108,
    108,
    108,
    108,
    108,
    108,
    108,
    108,
    108,
    108,
    108,
    108,
    108,
    108,
    108,
    108,
    108,
    108,
    108,
    108,
    108,
    108,
    108,
    108,
    108,
    108,
    108,
    108,
    108,
    108,
    0,
    0,
    110,
    111,
    111,
    111,
    111,
    111,
    111,
    111,
    111,
    111,
    111,
    111,
    111,
    0,
    107,
    108,
    108,
    108,
    108,
    108,
    108,
    108,
    108,
    108,
    108,
    108,
    108,
    108,
    108,
    108,
    108,
    108,
    108,
    108,
    108,
    108,
    108,
    108,
    108,
    108,
    108,
    108,
    108,
    108,
    108,
    108,
    0,
    0,
    110,
    111,
    111,
    111,
    111,
    111,
    111,
    111,
    111,
    111,
    111,
    111,
    111,
    0,
    107,
    108,
    108,
    108,
    108,
    108,
    108,
    108,
    108,
    108,
    108,
    108,
    108,
    108,
    108,
    108,
    108,
    108,
    108,
    108,
    108,
    108,
    108,
    108,
    108,
    108,
    108,
    108,
    108,
    108,
    108,
    108,
    0,
    0,
    110,
    111,
    111,
    111,
    111,
    111,
    111,
    111,
    111,
    111,
    111,
    111,
    111,
    92,
    93,
    108,
    108,
    108,
    108,
    108,
    108,
    108,
    108,
    108,
    108,
    108,
    108,
    108,
    108,
    108,
    108,
    108,
    108,
    108,
    108,
    108,
    108,
    108,
    108,
    108,
    108,
    108,
    108,
    108,
    108,
    108,
    0,
    0,
    110,
    111,
    111,
    111,
    111,
    111,
    111,
    111,
    111,
    111,
    111,
    111,
    111,
    108,
    108,
    108,
    108,
    108,
    108,
    108,
    108,
    108,
    108,
    108,
    108,
    108,
    108,
    108,
    108,
    108,
    108,
    108,
    108,
    108,
    108,
    108,
    108,
    108,
    108,
    108,
    108,
    108,
    108,
    108,
    108,
    108,
    0,
    0,
    110,
    111,
    111,
    111,
    111,
    111,
    111,
    111,
    111,
    111,
    111,
    111,
    111,
    0,
    107,
    108,
    108,
    108,
    108,
    108,
    108,
    108,
    108,
    108,
    108,
    108,
    108,
    108,
    108,
    108,
    108,
    108,
    108,
    108,
    108,
    108,
    108,
    108,
    108,
    108,
    108,
    108,
    108,
    108,
    108,
    108,
    0,
    0,
    110,
    111,
    111,
    111,
    111,
    111,
    111,
    111,
    111,
    111,
    111,
    111,
    111,
    0,
    107,
    108,
    108,
    108,
    108,
    108,
    108,
    108,
    108,
    108,
    108,
    108,
    108,
    108,
    108,
    108,
    108,
    108,
    108,
    108,
    108,
    108,
    108,
    108,
    108,
    108,
    108,
    108,
    108,
    108,
    108,
    108,
    0,
    0,
    110,
    111,
    111,
    111,
    111,
    111,
    111,
    111,
    111,
    111,
    111,
    111,
    111,
    0,
    107,
    108,
    108,
    108,
    108,
    108,
    108,
    108,
    108,
    108,
    108,
    108,
    108,
    108,
    108,
    108,
    108,
    108,
    108,
    108,
    108,
    108,
    108,
    108,
    108,
    108,
    108,
    108,
    108,
    108,
    108,
    108,
    0,
    0,
    110,
    111,
    111,
    111,
    111,
    111,
    111,
    111,
    111,
    111,
    111,
    111,
    111,
    0,
    107,
    108,
    108,
    108,
    108,
    108,
    108,
    108,
    108,
    108,
    108,
    108,
    108,
    108,
    108,
    108,
    108,
    108,
    108,
    108,
    108,
    108,
    108,
    108,
    108,
    108,
    108,
    108,
    108,
    108,
    108,
    108,
    0,
    0,
    110,
    111,
    111,
    111,
    111,
    111,
    111,
    111,
    111,
    111,
    111,
    111,
    111,
    0,
    107,
    108,
    108,
    108,
    108,
    108,
    108,
    108,
    108,
    108,
    108,
    108,
    108,
    108,
    108,
    108,
    108,
    108,
    108,
    108,
    108,
    108,
    108,
    108,
    108,
    108,
    108,
    108,
    108,
    108,
    108,
    108,
    0,
    0,
    110,
    111,
    111,
    111,
    111,
    111,
    111,
    111,
    111,
    111,
    111,
    111,
    111,
    0,
    107,
    108,
    108,
    108,
    108,
    108,
    108,
    108,
    108,
    108,
    108,
    108,
    108,
    108,
    108,
    108,
    108,
    108,
    108,
    108,
    108,
    108,
    108,
    108,
    108,
    108,
    108,
    108,
    108,
    108,
    108,
    108,
    0,
    0,
    0,
    0,
    0,
    0,
    0,
    0,
    0,
    0,
    0,
    0,
    0,
    0,
    0,
    0,
    107,
    108,
    108,
    108,
    108,
    108,
    108,
    108,
    108,
    108,
    108,
    108,
    108,
    108,
    108,
    108,
    108,
    108,
    108,
    108,
    108,
    108,
    108,
    108,
    108,
    108,
    108,
    108,
    108,
    108,
    108,
    108,
    0,
    0,
    0,
    0,
    0,
    0,
    0,
    0,
    0,
    0,
    0,
    0,
    0,
    0,
    0,
    0,
    107,
    108,
    108,
    108,
    108,
    108,
    108,
    108,
    108,
    108,
    108,
    108,
    108,
    108,
    108,
    108,
    108,
    108,
    108,
    108,
    108,
    108,
    108,
    108,
    108,
    108,
    108,
    108,
    108,
    108,
    108,
    108,
    0,
    0,
    187,
    188,
    188,
    188,
    188,
    188,
    188,
    188,
    188,
    188,
    188,
    188,
    188,
    0,
    107,
    108,
    108,
    108,
    108,
    108,
    108,
    108,
    108,
    108,
    108,
    108,
    108,
    108,
    108,
    108,
    108,
    108,
    108,
    108,
    108,
    108,
    108,
    108,
    108,
    108,
    108,
    108,
    108,
    108,
    108,
    108,
    0,
    0,
    203,
    204,
    204,
    204,
    204,
    204,
    204,
    204,
    204,
    204,
    204,
    204,
    204,
    0,
    107,
    108,
    108,
    108,
    108,
    108,
    108,
    108,
    108,
    108,
    108,
    108,
    108,
    108,
    108,
    108,
    108,
    108,
    108,
    108,
    108,
    108,
    108,
    108,
    108,
    108,
    108,
    108,
    108,
    108,
    108,
    108,
    0,
    0,
    203,
    204,
    204,
    204,
    204,
    204,
    204,
    204,
    204,
    204,
    204,
    204,
    204,
    0,
    107,
    108,
    108,
    108,
    108,
    108,
    108,
    108,
    108,
    108,
    108,
    108,
    108,
    108,
    108,
    108,
    108,
    108,
    108,
    108,
    108,
    108,
    108,
    108,
    108,
    108,
    108,
    108,
    108,
    108,
    108,
    108,
    0,
    0,
    203,
    204,
    204,
    204,
    204,
    204,
    204,
    204,
    204,
    204,
    204,
    204,
    204,
    0,
    107,
    108,
    108,
    108,
    108,
    108,
    108,
    108,
    108,
    108,
    108,
    108,
    108,
    108,
    108,
    108,
    108,
    108,
    108,
    108,
    108,
    108,
    108,
    108,
    108,
    108,
    108,
    108,
    108,
    108,
    108,
    108,
    0,
    0,
    203,
    204,
    204,
    204,
    204,
    204,
    204,
    204,
    204,
    204,
    204,
    204,
    204,
    0,
    107,
    108,
    108,
    108,
    108,
    108,
    108,
    108,
    108,
    108,
    108,
    108,
    108,
    108,
    108,
    108,
    108,
    108,
    108,
    108,
    108,
    108,
    108,
    108,
    108,
    108,
    108,
    108,
    108,
    108,
    108,
    108,
    0,
    0,
    203,
    204,
    204,
    204,
    204,
    204,
    204,
    204,
    204,
    204,
    204,
    204,
    204,
    0,
    107,
    108,
    108,
    108,
    108,
    108,
    108,
    108,
    108,
    108,
    108,
    108,
    108,
    108,
    108,
    108,
    108,
    108,
    108,
    108,
    108,
    108,
    108,
    108,
    108,
    108,
    108,
    108,
    108,
    108,
    108,
    108,
    0,
    0,
    203,
    204,
    204,
    204,
    204,
    204,
    204,
    204,
    204,
    204,
    204,
    204,
    204,
    92,
    93,
    108,
    108,
    108,
    108,
    108,
    108,
    108,
    108,
    108,
    108,
    108,
    108,
    108,
    108,
    108,
    108,
    108,
    108,
    108,
    108,
    108,
    108,
    108,
    108,
    108,
    108,
    108,
    108,
    108,
    108,
    108,
    0,
    0,
    203,
    204,
    204,
    204,
    204,
    204,
    204,
    204,
    204,
    204,
    204,
    204,
    204,
    108,
    108,
    108,
    108,
    108,
    108,
    108,
    108,
    108,
    108,
    108,
    108,
    108,
    108,
    108,
    108,
    108,
    108,
    108,
    108,
    108,
    108,
    108,
    108,
    108,
    108,
    108,
    108,
    108,
    108,
    108,
    108,
    108,
    0,
    0,
    203,
    204,
    204,
    204,
    204,
    204,
    204,
    204,
    204,
    204,
    204,
    204,
    204,
    0,
    107,
    108,
    108,
    108,
    108,
    108,
    108,
    108,
    108,
    108,
    108,
    108,
    108,
    108,
    108,
    108,
    108,
    108,
    108,
    108,
    108,
    108,
    108,
    108,
    108,
    108,
    108,
    108,
    108,
    108,
    108,
    108,
    0,
    0,
    203,
    204,
    204,
    204,
    204,
    204,
    204,
    204,
    204,
    204,
    204,
    204,
    204,
    0,
    107,
    108,
    108,
    108,
    108,
    108,
    108,
    108,
    108,
    108,
    108,
    108,
    108,
    108,
    108,
    108,
    108,
    108,
    108,
    108,
    108,
    108,
    108,
    108,
    108,
    108,
    108,
    108,
    108,
    108,
    108,
    108,
    0,
    0,
    203,
    204,
    204,
    204,
    204,
    204,
    204,
    204,
    204,
    204,
    204,
    204,
    204,
    0,
    107,
    108,
    108,
    108,
    108,
    108,
    108,
    108,
    108,
    108,
    108,
    108,
    108,
    108,
    108,
    108,
    108,
    108,
    108,
    108,
    108,
    108,
    108,
    108,
    108,
    108,
    108,
    108,
    108,
    108,
    108,
    108,
    0,
    0,
    203,
    204,
    204,
    204,
    204,
    204,
    204,
    204,
    204,
    204,
    204,
    204,
    204,
    0,
    107,
    108,
    108,
    108,
    108,
    108,
    108,
    108,
    108,
    108,
    108,
    108,
    108,
    108,
    108,
    108,
    108,
    108,
    108,
    108,
    108,
    108,
    108,
    108,
    108,
    108,
    108,
    108,
    108,
    108,
    108,
    108,
    0,
    0,
    203,
    204,
    204,
    204,
    204,
    204,
    204,
    204,
    204,
    204,
    204,
    204,
    204,
    0,
    107,
    108,
    108,
    108,
    108,
    108,
    108,
    108,
    108,
    108,
    108,
    108,
    108,
    108,
    108,
    108,
    108,
    108,
    108,
    108,
    108,
    108,
    108,
    108,
    108,
    108,
    108,
    108,
    108,
    108,
    108,
    108,
    0,
    0,
    0,
    0,
    0,
    0,
    0,
    0,
    0,
    0,
    0,
    0,
    0,
    0,
    0,
    0,
    0,
    0,
    0,
    0,
    0,
    0,
    0,
    0,
    0,
    0,
    0,
    0,
    0,
    0,
    0,
    0,
    0,
    0,
    0,
    0,
    0,
    0,
    0,
    0,
    0,
    0,
    0,
    0,
    0,
    0,
    0,
    0,
    0
   ],
   "height": 32,
   "id": 1,
   "name": "Ground",
   "opacity": 1,
   "type": "tilelayer",
   "visible": true,
   "width": 48,
   "x": 0,
   "y": 0
  },
  {
   "data": [
    13,
    178,
    178,
    178,
    178,
    178,
    178,
    178,
    178,
    178,
    178,
    178,
    178,
    178,
    28,
    178,
    178,
    178,
    178,
    178,
    178,
    178,
    178,
    178,
    178,
    178,
    178,
    178,
    178,
    178,
    178,
    178,
    178,
    178,
    178,
    178,
    178,
    178,
    178,
    178,
    178,
    178,
    178,
    178,
    178,
    178,
    178,
    11,
    28,
    194,
    194,
    194,
    194,
    194,
    194,
    194,
    194,
    194,
    194,
    194,
    194,
    194,
    28,
    194,
    194,
    194,
    194,
    194,
    194,
    194,
    194,
    194,
    194,
    194,
    194,
    194,
    194,
    194,
    194,
    194,
    194,
    194,
    194,
    194,
    194,
    194,
    194,
    194,
    194,
    194,
    194,
    194,
    194,
    194,
    194,
    28,
    28,
    0,
    0,
    0,
    0,
    0,
    0,
    0,
    0,
    0,
    0,
    0,
    0,
    0,
    28,
    0,
    0,
    0,
    0,
    0,
    0,
    0,
    0,
    0,
    0,
    0,
    0,
    0,
    0,
    0,
    0,
    0,
    0,
    0,
    0,
    0,
    0,
    0,
    0,
    0,
    0,
    0,
    0,
    0,
    0,
    0,
    0,
    28,
    28,
    0,
    0,
    0,
    0,
    0,
    0,
    0,
    0,
    0,
    0,
    0,
    0,
    0,
    28,
    0,
    0,
    0,
    0,
    0,
    0,
    0,
    0,
    0,
    0,
    0,
    0,
    0,
    0,
    0,
    0,
    0,
    0,
    0,
    0,
    0,
    0,
    0,
    0,
    0,
    0,
    0,
    0,
    0,
    0,
    0,
    0,
    28,
    28,
    0,
    0,
    0,
    0,
    0,
    0,
    0,
    0,
    0,
    0,
    0,
    0,
    0,
    28,
    0,
    0,
    0,
    0,
    0,
    0,
    0,
    0,
    0,
    0,
    0,
    0,
    0,
    0,
    0,
    0,
    0,
    0,
    0,
    0,
    0,
    0,
    0,
    0,
    0,
    0,
    0,
    0,
    0,
    0,
    0,
    0,
    28,
    28,
    0,
    0,
    0,
    0,
    0,
    0,
    0,
    0,
    0,
    0,
    0,
    0,
    0,
    28,
    0,
    0,
    0,
    0,
    0,
    0,
    0,
    0,
    0,
    0,
    0,
    0,
    0,
    0,
    0,
    0,
    0,
    0,
    0,
    0,
    0,
    0,
    0,
    0,
    0,
    0,
    0,
    0,
    0,
    0,
    0,
    0,
    28,
    28,
    0,
    0,
    0,
    0,
    0,
    0,
    0,
    0,
    0,
    0,
    0,
    0,
    0,
    180,
    0,
    0,
    0,
    0,
    0,
    0,
    0,
    0,
    0,
    0,
    0,
    0,
    0,
    0,
    0,
    0,
    0,
    0,
    0,
    0,
    0,
    0,
    0,
    0,
    0,
    0,
    0,
    0,
    0,
    0,
    0,
    0,
    28,
    28,
    0,
    0,
    0,
    0,
    0,
    0,
    0,
    0,
    0,
    0,
    0,
    0,
    0,
    196,
    0,
    0,
    0,
    0,
    0,
    0,
    0,
    0,
    0,
    0,
    0,
    0,
    0,
    0,
    0,
    0,
    0,
    0,
    0,
    0,
    0,
    0,
    0,
    0,
    0,
    0,
    0,
    0,
    0,
    0,
    0,
    0,
    28,
    28,
    0,
    0,
    0,
    0,
    0,
    0,
    0,
    0,
    0,
    0,
    0,
    0,
    0,
    0,
    0,
    0,
    0,
    0,
    0,
    0,
    0,
    0,
    0,
    0,
    0,
    0,
    0,
    0,
    0,
    0,
    0,
    0,
    0,
    0,
    0,
    0,
    0,
    0,
    0,
    0,
    0,
    0,
    0,
    0,
    0,
    0,
    28,
    28,
    0,
    0,
    0,
    0,
    0,
    0,
    0,
    0,
    0,
    0,
    0,
    0,
    0,
    0,
    0,
    0,
    0,
    0,
    0,
    0,
    0,
    0,
    0,
    0,
    0,
    0,
    0,
    0,
    0,
    0,
    0,
    0,
    0,
    0,
    0,
    0,
    0,
    0,
    0,
    0,
    0,
    0,
    0,
    0,
    0,
    0,
    28,
    28,
    0,
    0,
    0,
    0,
    0,
    0,
    0,
    0,
    0,
    0,
    0,
    0,
    0,
    11,
    0,
    0,
    0,
    0,
    0,
    0,
    0,
    0,
    0,
    0,
    0,
    0,
    0,
    0,
    0,
    0,
    0,
    0,
    0,
    0,
    0,
    0,
    0,
    0,
    0,
    0,
    0,
    0,
    0,
    0,
    0,
    0,
    28,
    28,
    0,
    0,
    0,
    0,
    0,
    0,
    0,
    0,
    0,
    0,
    0,
    0,
    0,
    28,
    0,
    0,
    0,
    0,
    0,
    0,
    0,
    0,
    0,
    0,
    0,
    0,
    0,
    0,
    0,
    0,
    0,
    0,
    0,
    0,
    0,
    0,
    0,
    0,
    0,
    0,
    0,
    0,
    0,
    0,
    0,
    0,
    28,
    28,
    0,
    0,
    0,
    0,
    0,
    0,
    0,
    0,
    0,
    0,
    0,
    0,
    0,
    28,
    0,
    0,
    0,
    0,
    0,
    0,
    0,
    0,
    0,
    0,
    0,
    0,
    0,
    0,
    0,
    0,
    0,
    0,
    0,
    0,
    0,
    0,
    0,
    0,
    0,
    0,
    0,
    0,
    0,
    0,
    0,
    0,
    28,
    28,
    0,
    0,
    0,
    0,
    0,
    0,
    0,
    0,
    0,
    0,
    0,
    0,
    0,
    28,
    0,
    0,
    0,
    0,
    0,
    0,
    0,
    0,
    0,
    0,
    0,
    0,
    0,
    0,
    0,
    0,
    0,
    0,
    0,
    0,
    0,
    0,
    0,
    0,
    0,
    0,
    0,
    0,
    0,
    0,
    0,
    0,
    28,
    28,
    0,
    0,
    0,
    0,
    0,
    0,
    0,
    0,
    0,
    0,
    0,
    0,
    0,
    28,
    0,
    0,
    0,
    0,
    0,
    0,
    0,
    0,
    0,
    0,
    0,
    0,
    0,
    0,
    0,
    0,
    0,
    0,
    0,
    0,
    0,
    0,
    0,
    0,
    0,
    0,
    0,
    0,
    0,
    0,
    0,
    0,
    28,
    28,
    0,
    0,
    0,
    0,
    0,
    0,
    0,
    0,
    0,
    0,
    0,
    0,
    0,
    28,
    0,
    0,
    0,
    0,
    0,
    0,
    0,
    0,
    0,
    0,
    0,
    0,
    0,
    0,
    0,
    0,
    0,
    0,
    0,
    0,
    0,
    0,
    0,
    0,
    0,
    0,
    0,
    0,
    0,
    0,
    0,
    0,
    28,
    28,
    178,
    178,
    178,
    178,
    178,
    178,
    178,
    178,
    178,
    178,
    178,
    178,
    178,
    59,
    0,
    0,
    0,
    0,
    0,
    0,
    0,
    0,
    0,
    0,
    0,
    0,
    0,
    0,
    0,
    0,
    0,
    0,
    0,
    0,
    0,
    0,
    0,
    0,
    0,
    0,
    0,
    0,
    0,
    0,
    0,
    0,
    28,
    28,
    194,
    194,
    194,
    194,
    194,
    194,
    194,
    194,
    194,
    194,
    194,
    194,
    194,
    28,
    0,
    0,
    0,
    0,
    0,
    0,
    0,
    0,
    0,
    0,
    0,
    0,
    0,
    0,
    0,
    0,
    0,
    0,
    0,
    0,
    0,
    0,
    0,
    0,
    0,
    0,
    0,
    0,
    0,
    0,
    0,
    0,
    28,
    28,
    0,
    0,
    0,
    0,
    0,
    0,
    0,
    0,
    0,
    0,
    0,
    0,
    0,
    28,
    0,
    0,
    0,
    0,
    0,
    0,
    0,
    0,
    0,
    0,
    0,
    0,
    0,
    0,
    0,
    0,
    0,
    0,
    0,
    0,
    0,
    0,
    0,
    0,
    0,
    0,
    0,
    0,
    0,
    0,
    0,
    0,
    28,
    28,
    0,
    0,
    0,
    0,
    0,
    0,
    0,
    0,
    0,
    0,
    0,
    0,
    0,
    28,
    0,
    0,
    0,
    0,
    0,
    0,
    0,
    0,
    0,
    0,
    0,
    0,
    0,
    0,
    0,
    0,
    0,
    0,
    0,
    0,
    0,
    0,
    0,
    0,
    0,
    0,
    0,
    0,
    0,
    0,
    0,
    0,
    28,
    28,
    0,
    0,
    0,
    0,
    0,
    0,
    0,
    0,
    0,
    0,
    0,
    0,
    0,
    28,
    0,
    0,
    0,
    0,
    0,
    0,
    0,
    0,
    0,
    0,
    0,
    0,
    0,
    0,
    0,
    0,
    0,
    0,
    0,
    0,
    0,
    0,
    0,
    0,
    0,
    0,
    0,
    0,
    0,
    0,
    0,
    0,
    28,
    28,
    0,
    0,
    0,
    0,
    0,
    0,
    0,
    0,
    0,
    0,
    0,
    0,
    0,
    28,
    0,
    0,
    0,
    0,
    0,
    0,
    0,
    0,
    0,
    0,
    0,
    0,
    0,
    0,
    0,
    0,
    0,
    0,
    0,
    0,
    0,
    0,
    0,
    0,
    0,
    0,
    0,
    0,
    0,
    0,
    0,
    0,
    28,
    28,
    0,
    0,
    0,
    0,
    0,
    0,
    0,
    0,
    0,
    0,
    0,
    0,
    0,
    180,
    0,
    0,
    0,
    0,
    0,
    0,
    0,
    0,
    0,
    0,
    0,
    0,
    0,
    0,
    0,
    0,
    0,
    0,
    0,
    0,
    0,
    0,
    0,
    0,
    0,
    0,
    0,
    0,
    0,
    0,
    0,
    0,
    28,
    28,
    0,
    0,
    0,
    0,
    0,
    0,
    0,
    0,
    0,
    0,
    0,
    0,
    0,
    196,
    0,
    0,
    0,
    0,
    0,
    0,
    0,
    0,
    0,
    0,
    0,
    0,
    0,
    0,
    0,
    0,
    0,
    0,
    0,
    0,
    0,
    0,
    0,
    0,
    0,
    0,
    0,
    0,
    0,
    0,
    0,
    0,
    28,
    28,
    0,
    0,
    0,
    0,
    0,
    0,
    0,
    0,
    0,
    0,
    0,
    0,
    0,
    0,
    0,
    0,
    0,
    0,
    0,
    0,
    0,
    0,
    0,
    0,
    0,
    0,
    0,
    0,
    0,
    0,
    0,
    0,
    0,
    0,
    0,
    0,
    0,
    0,
    0,
    0,
    0,
    0,
    0,
    0,
    0,
    0,
    28,
    28,
    0,
    0,
    0,
    0,
    0,
    0,
    0,
    0,
    0,
    0,
    0,
    0,
    0,
    0,
    0,
    0,
    0,
    0,
    0,
    0,
    0,
    0,
    0,
    0,
    0,
    0,
    0,
    0,
    0,
    0,
    0,
    0,
    0,
    0,
    0,
    0,
    0,
    0,
    0,
    0,
    0,
    0,
    0,
    0,
    0,
    0,
    28,
    28,
    0,
    0,
    0,
    0,
    0,
    0,
    0,
    0,
    0,
    0,
    0,
    0,
    0,
    11,
    0,
    0,
    0,
    0,
    0,
    0,
    0,
    0,
    0,
    0,
    0,
    0,
    0,
    0,
    0,
    0,
    0,
    0,
    0,
    0,
    0,
    0,
    0,
    0,
    0,
    0,
    0,
    0,
    0,
    0,
    0,
    0,
    28,
    28,
    0,
    0,
    0,
    0,
    0,
    0,
    0,
    0,
    0,
    0,
    0,
    0,
    0,
    28,
    0,
    0,
    0,
    0,
    0,
    0,
    0,
    0,
    0,
    0,
    0,
    0,
    0,
    0,
    0,
    0,
    0,
    0,
    0,
    0,
    0,
    0,
    0,
    0,
    0,
    0,
    0,
    0,
    0,
    0,
    0,
    0,
    28,
    28,
    0,
    0,
    0,
    0,
    0,
    0,
    0,
    0,
    0,
    0,
    0,
    0,
    0,
    28,
    0,
    0,
    0,
    0,
    0,
    0,
    0,
    0,
    0,
    0,
    0,
    0,
    0,
    0,
    0,
    0,
    0,
    0,
    0,
    0,
    0,
    0,
    0,
    0,
    0,
    0,
    0,
    0,
    0,
    0,
    0,
    0,
    28,
    28,
    0,
    0,
    0,
    0,
    0,
    0,
    0,
    0,
    0,
    0,
    0,
    0,
    0,
    28,
    0,
    0,
    0,
    0,
    0,
    0,
    0,
    0,
    0,
    0,
    0,
    0,
    0,
    0,
    0,
    0,
    0,
    0,
    0,
    0,
    0,
    0,
    0,
    0,
    0,
    0,
    0,
    0,
    0,
    0,
    0,
    0,
    28,
    28,
    0,
    0,
    0,
    0,
    0,
    0,
    0,
    0,
    0,
    0,
    0,
    0,
    0,
    28,
    0,
    0,
    0,
    0,
    0,
    0,
    0,
    0,
    0,
    0,
    0,
    0,
    0,
    0,
    0,
    0,
    0,
    0,
    0,
    0,
    0,
    0,
    0,
    0,
    0,
    0,
    0,
    0,
    0,
    0,
    0,
    0,
    28,
    28,
    178,
    178,
    178,
    178,
    178,
    178,
    178,
    178,
    178,
    178,
    178,
    178,
    178,
    178,
    178,
    178,
    178,
    178,
    178,
    178,
    178,
    178,
    178,
    178,
    178,
    178,
    178,
    178,
    178,
    178,
    178,
    178,
    178,
    178,
    178,
    178,
    178,
    178,
    178,
    178,
    178,
    178,
    178,
    178,
    178,
    178,
    28
   ],
   "height": 32,
   "id": 2,
   "name": "Walls",
   "opacity": 1,
   "type": "tilelayer",
   "visible": true,
   "width": 48,
   "x": 0,
   "y": 0
  },
  {
   "draworder": "topdown",
   "id": 3,
   "name": "Furniture",
   "objects": [
    {
     "id": 11,
     "name": "",
     "rotation": 0,
     "type": "",
     "visible": true,
     "x": 32,
     "y": 32,
     "width": 32,
     "height": 32,
     "gid": 472
    },
    {
     "id": 12,
     "name": "",
     "rotation": 0,
     "type": "",
     "visible": true,
     "x": 64,
     "y": 32,
     "width": 32,
     "height": 32,
     "gid": 473
    },
    {
     "id": 13,
     "name": "",
     "rotation": 0,
     "type": "",
     "visible": true,
     "x": 32,
     "y": 64,
     "width": 32,
     "height": 32,
     "gid": 488
    },
    {
     "id": 14,
     "name": "",
     "rotation": 0,
     "type": "",
     "visible": true,
     "x": 64,
     "y": 64,
     "width": 32,
     "height": 32,
     "gid": 489
    },
    {
     "id": 15,
     "name": "",
     "rotation": 0,
     "type": "",
     "visible": true,
     "x": 32,
     "y": 96,
     "width": 32,
     "height": 32,
     "gid": 504
    },
    {
     "id": 16,
     "name": "",
     "rotation": 0,
     "type": "",
     "visible": true,
     "x": 64,
     "y": 96,
     "width": 32,
     "height": 32,
     "gid": 505
    },
    {
     "id": 18,
     "name": "",
     "rotation": 0,
     "type": "",
     "visible": true,
     "x": 128,
     "y": 32,
     "width": 32,
     "height": 32,
     "gid": 458
    },
    {
     "id": 19,
     "name": "",
     "rotation": 0,
     "type": "",
     "visible": true,
     "x": 160,
     "y": 32,
     "width": 32,
     "height": 32,
     "gid": 459
    },
    {
     "id": 20,
     "name": "",
     "rotation": 0,
     "type": "",
     "visible": true,
     "x": 128,
     "y": 64,
     "width": 32,
     "height": 32,
     "gid": 474
    },
    {
     "id": 21,
     "name": "",
     "rotation": 0,
     "type": "",
     "visible": true,
     "x": 160,
     "y": 64,
     "width": 32,
     "height": 32,
     "gid": 475
    },
    {
     "id": 23,
     "name": "",
     "rotation": 0,
     "type": "",
     "visible": true,
     "x": 224,
     "y": 32,
     "width": 32,
     "height": 32,
     "gid": 417
    },
    {
     "id": 24,
     "name": "",
     "rotation": 0,
     "type": "",
     "visible": true,
     "x": 256,
     "y": 32,
     "width": 32,
     "height": 32,
     "gid": 418
    },
    {
     "id": 25,
     "name": "",
     "rotation": 0,
     "type": "",
     "visible": true,
     "x": 224,
     "y": 64,
     "width": 32,
     "height": 32,
     "gid": 433
    },
    {
     "id": 26,
     "name": "",
     "rotation": 0,
     "type": "",
     "visible": true,
     "x": 256,
     "y": 64,
     "width": 32,
     "height": 32,
     "gid": 434
    },
    {
     "id": 28,
     "name": "",
     "rotation": 0,
     "type": "",
     "visible": true,
     "x": 352,
     "y": 32,
     "width": 32,
     "height": 32,
     "gid": 477
    },
    {
     "id": 29,
     "name": "",
     "rotation": 0,
     "type": "",
     "visible": true,
     "x": 352,
     "y": 64,
     "width": 32,
     "height": 32,
     "gid": 493
    },
    {
     "id": 30,
     "name": "",
     "rotation": 0,
     "type": "",
     "visible": true,
     "x": 352,
     "y": 96,
     "width": 32,
     "height": 32,
     "gid": 509
    },
    {
     "id": 32,
     "name": "",
     "rotation": 0,
     "type": "",
     "visible": true,
     "x": 384,
     "y": 32,
     "width": 32,
     "height": 32,
     "gid": 845
    },
    {
     "id": 33,
     "name": "",
     "rotation": 0,
     "type": "",
     "visible": true,
     "x": 416,
     "y": 32,
     "width": 32,
     "height": 32,
     "gid": 846
    },
    {
     "id": 34,
     "name": "",
     "rotation": 0,
     "type": "",
     "visible": true,
     "x": 384,
     "y": 64,
     "width": 32,
     "height": 32,
     "gid": 861
    },
    {
     "id": 35,
     "name": "",
     "rotation": 0,
     "type": "",
     "visible": true,
     "x": 416,
     "y": 64,
     "width": 32,
     "height": 32,
     "gid": 862
    },
    {
     "id": 36,
     "name": "",
     "rotation": 0,
     "type": "",
     "visible": true,
     "x": 384,
     "y": 96,
     "width": 32,
     "height": 32,
     "gid": 877
    },
    {
     "id": 37,
     "name": "",
     "rotation": 0,
     "type": "",
     "visible": true,
     "x": 416,
     "y": 96,
     "width": 32,
     "height": 32,
     "gid": 878
    },
    {
     "id": 39,
     "name": "",
     "rotation": 0,
     "type": "",
     "visible": true,
     "x": 96,
     "y": 256,
     "width": 32,
     "height": 32,
     "gid": 226
    },
    {
     "id": 40,
     "name": "",
     "rotation": 0,
     "type": "",
     "visible": true,
     "x": 128,
     "y": 256,
     "width": 32,
     "height": 32,
     "gid": 227
    },
    {
     "id": 41,
     "name": "",
     "rotation": 0,
     "type": "",
     "visible": true,
     "x": 160,
     "y": 256,
     "width": 32,
     "height": 32,
     "gid": 227
    },
    {
     "id": 42,
     "name": "",
     "rotation": 0,
     "type": "",
     "visible": true,
     "x": 192,
     "y": 256,
     "width": 32,
     "height": 32,
     "gid": 227
    },
    {
     "id": 43,
     "name": "",
     "rotation": 0,
     "type": "",
     "visible": true,
     "x": 224,
     "y": 256,
     "width": 32,
     "height": 32,
     "gid": 227
    },
    {
     "id": 44,
     "name": "",
     "rotation": 0,
     "type": "",
     "visible": true,
     "x": 256,
     "y": 256,
     "width": 32,
     "height": 32,
     "gid": 227
    },
    {
     "id": 45,
     "name": "",
     "rotation": 0,
     "type": "",
     "visible": true,
     "x": 288,
     "y": 256,
     "width": 32,
     "height": 32,
     "gid": 228
    },
    {
     "id": 46,
     "name": "",
     "rotation": 0,
     "type": "",
     "visible": true,
     "x": 96,
     "y": 288,
     "width": 32,
     "height": 32,
     "gid": 242
    },
    {
     "id": 47,
     "name": "",
     "rotation": 0,
     "type": "",
     "visible": true,
     "x": 128,
     "y": 288,
     "width": 32,
     "height": 32,
     "gid": 243
    },
    {
     "id": 48,
     "name": "",
     "rotation": 0,
     "type": "",
     "visible": true,
     "x": 160,
     "y": 288,
     "width": 32,
     "height": 32,
     "gid": 243
    },
    {
     "id": 49,
     "name": "",
     "rotation": 0,
     "type": "",
     "visible": true,
     "x": 192,
     "y": 288,
     "width": 32,
     "height": 32,
     "gid": 243
    },
    {
     "id": 50,
     "name": "",
     "rotation": 0,
     "type": "",
     "visible": true,
     "x": 224,
     "y": 288,
     "width": 32,
     "height": 32,
     "gid": 243
    },
    {
     "id": 51,
     "name": "",
     "rotation": 0,
     "type": "",
     "visible": true,
     "x": 256,
     "y": 288,
     "width": 32,
     "height": 32,
     "gid": 243
    },
    {
     "id": 52,
     "name": "",
     "rotation": 0,
     "type": "",
     "visible": true,
     "x": 288,
     "y": 288,
     "width": 32,
     "height": 32,
     "gid": 244
    },
    {
     "id": 53,
     "name": "",
     "rotation": 0,
     "type": "",
     "visible": true,
     "x": 96,
     "y": 320,
     "width": 32,
     "height": 32,
     "gid": 258
    },
    {
     "id": 54,
     "name": "",
     "rotation": 0,
     "type": "",
     "visible": true,
     "x": 128,
     "y": 320,
     "width": 32,
     "height": 32,
     "gid": 259
    },
    {
     "id": 55,
     "name": "",
     "rotation": 0,
     "type": "",
     "visible": true,
     "x": 160,
     "y": 320,
     "width": 32,
     "height": 32,
     "gid": 259
    },
    {
     "id": 56,
     "name": "",
     "rotation": 0,
     "type": "",
     "visible": true,
     "x": 192,
     "y": 320,
     "width": 32,
     "height": 32,
     "gid": 259
    },
    {
     "id": 57,
     "name": "",
     "rotation": 0,
     "type": "",
     "visible": true,
     "x": 224,
     "y": 320,
     "width": 32,
     "height": 32,
     "gid": 259
    },
    {
     "id": 58,
     "name": "",
     "rotation": 0,
     "type": "",
     "visible": true,
     "x": 256,
     "y": 320,
     "width": 32,
     "height": 32,
     "gid": 259
    },
    {
     "id": 59,
     "name": "",
     "rotation": 0,
     "type": "",
     "visible": true,
     "x": 288,
     "y": 320,
     "width": 32,
     "height": 32,
     "gid": 260
    },
    {
     "id": 68,
     "name": "",
     "rotation": 0,
     "type": "",
     "visible": true,
     "x": 32,
     "y": 448,
     "width": 32,
     "height": 32,
     "gid": 547
    },
    {
     "id": 69,
     "name": "",
     "rotation": 0,
     "type": "",
     "visible": true,
     "x": 64,
     "y": 448,
     "width": 32,
     "height": 32,
     "gid": 548
    },
    {
     "id": 70,
     "name": "",
     "rotation": 0,
     "type": "",
     "visible": true,
     "x": 96,
     "y": 448,
     "width": 32,
     "height": 32,
     "gid": 549
    },
    {
     "id": 71,
     "name": "",
     "rotation": 0,
     "type": "",
     "visible": true,
     "x": 32,
     "y": 480,
     "width": 32,
     "height": 32,
     "gid": 563
    },
    {
     "id": 72,
     "name": "",
     "rotation": 0,
     "type": "",
     "visible": true,
     "x": 64,
     "y": 480,
     "width": 32,
     "height": 32,
     "gid": 564
    },
    {
     "id": 73,
     "name": "",
     "rotation": 0,
     "type": "",
     "visible": true,
     "x": 96,
     "y": 480,
     "width": 32,
     "height": 32,
     "gid": 565
    },
    {
     "id": 74,
     "name": "",
     "rotation": 0,
     "type": "",
     "visible": true,
     "x": 32,
     "y": 512,
     "width": 32,
     "height": 32,
     "gid": 579
    },
    {
     "id": 75,
     "name": "",
     "rotation": 0,
     "type": "",
     "visible": true,
     "x": 64,
     "y": 512,
     "width": 32,
     "height": 32,
     "gid": 580
    },
    {
     "id": 76,
     "name": "",
     "rotation": 0,
     "type": "",
     "visible": true,
     "x": 96,
     "y": 512,
     "width": 32,
     "height": 32,
     "gid": 581
    },
    {
     "id": 78,
     "name": "",
     "rotation": 0,
     "type": "",
     "visible": true,
     "x": 416,
     "y": 512,
     "width": 32,
     "height": 32,
     "gid": 455
    },
    {
     "id": 79,
     "name": "",
     "rotation": 0,
     "type": "",
     "visible": true,
     "x": 416,
     "y": 448,
     "width": 32,
     "height": 32,
     "gid": 423
    },
    {
     "id": 80,
     "name": "",
     "rotation": 0,
     "type": "",
     "visible": true,
     "x": 416,
     "y": 480,
     "width": 32,
     "height": 32,
     "gid": 439
    },
    {
     "id": 83,
     "name": "",
     "rotation": 0,
     "type": "",
     "visible": true,
     "x": 64,
     "y": 544,
     "width": 32,
     "height": 32,
     "gid": 393
    },
    {
     "id": 84,
     "name": "",
     "rotation": 0,
     "type": "",
     "visible": true,
     "x": 64,
     "y": 576,
     "width": 32,
     "height": 32,
     "gid": 409
    },
    {
     "id": 86,
     "name": "",
     "rotation": 0,
     "type": "",
     "visible": true,
     "x": 128,
     "y": 544,
     "width": 32,
     "height": 32,
     "gid": 438
    },
    {
     "id": 88,
     "name": "",
     "rotation": 0,
     "type": "",
     "visible": true,
     "x": 192,
     "y": 544,
     "width": 32,
     "height": 32,
     "gid": 419
    },
    {
     "id": 89,
     "name": "",
     "rotation": 0,
     "type": "",
     "visible": true,
     "x": 192,
     "y": 576,
     "width": 32,
     "height": 32,
     "gid": 435
    },
    {
     "id": 91,
     "name": "",
     "rotation": 0,
     "type": "",
     "visible": true,
     "x": 352,
     "y": 608,
     "width": 32,
     "height": 32,
     "gid": 589
    },
    {
     "id": 92,
     "name": "",
     "rotation": 0,
     "type": "",
     "visible": true,
     "x": 384,
     "y": 608,
     "width": 32,
     "height": 32,
     "gid": 590
    },
    {
     "id": 93,
     "name": "",
     "rotation": 0,
     "type": "",
     "visible": true,
     "x": 352,
     "y": 640,
     "width": 32,
     "height": 32,
     "gid": 605
    },
    {
     "id": 94,
     "name": "",
     "rotation": 0,
     "type": "",
     "visible": true,
     "x": 384,
     "y": 640,
     "width": 32,
     "height": 32,
     "gid": 606
    },
    {
     "id": 95,
     "name": "",
     "rotation": 0,
     "type": "",
     "visible": true,
     "x": 352,
     "y": 672,
     "width": 32,
     "height": 32,
     "gid": 621
    },
    {
     "id": 96,
     "name": "",
     "rotation": 0,
     "type": "",
     "visible": true,
     "x": 384,
     "y": 672,
     "width": 32,
     "height": 32,
     "gid": 622
    },
    {
     "id": 97,
     "name": "",
     "rotation": 0,
     "type": "",
     "visible": true,
     "x": 384,
     "y": 640,
     "width": 32,
     "height": 32,
     "gid": 379
    },
    {
     "id": 99,
     "name": "",
     "rotation": 0,
     "type": "",
     "visible": true,
     "x": 256,
     "y": 544,
     "width": 32,
     "height": 32,
     "gid": 841
    },
    {
     "id": 100,
     "name": "",
     "rotation": 0,
     "type": "",
     "visible": true,
     "x": 288,
     "y": 544,
     "width": 32,
     "height": 32,
     "gid": 842
    },
    {
     "id": 101,
     "name": "",
     "rotation": 0,
     "type": "",
     "visible": true,
     "x": 256,
     "y": 576,
     "width": 32,
     "height": 32,
     "gid": 857
    },
    {
     "id": 102,
     "name": "",
     "rotation": 0,
     "type": "",
     "visible": true,
     "x": 288,
     "y": 576,
     "width": 32,
     "height": 32,
     "gid": 858
    },
    {
     "id": 103,
     "name": "",
     "rotation": 0,
     "type": "",
     "visible": true,
     "x": 256,
     "y": 608,
     "width": 32,
     "height": 32,
     "gid": 873
    },
    {
     "id": 104,
     "name": "",
     "rotation": 0,
     "type": "",
     "visible": true,
     "x": 288,
     "y": 608,
     "width": 32,
     "height": 32,
     "gid": 874
    },
    {
     "id": 106,
     "name": "",
     "rotation": 0,
     "type": "",
     "visible": true,
     "x": 128,
     "y": 768,
     "width": 32,
     "height": 32,
     "gid": 290
    },
    {
     "id": 107,
     "name": "",
     "rotation": 0,
     "type": "",
     "visible": true,
     "x": 160,
     "y": 768,
     "width": 32,
     "height": 32,
     "gid": 291
    },
    {
     "id": 108,
     "name": "",
     "rotation": 0,
     "type": "",
     "visible": true,
     "x": 192,
     "y": 768,
     "width": 32,
     "height": 32,
     "gid": 291
    },
    {
     "id": 109,
     "name": "",
     "rotation": 0,
     "type": "",
     "visible": true,
     "x": 224,
     "y": 768,
     "width": 32,
     "height": 32,
     "gid": 291
    },
    {
     "id": 110,
     "name": "",
     "rotation": 0,
     "type": "",
     "visible": true,
     "x": 256,
     "y": 768,
     "width": 32,
     "height": 32,
     "gid": 291
    },
    {
     "id": 111,
     "name": "",
     "rotation": 0,
     "type": "",
     "visible": true,
     "x": 288,
     "y": 768,
     "width": 32,
     "height": 32,
     "gid": 292
    },
    {
     "id": 112,
     "name": "",
     "rotation": 0,
     "type": "",
     "visible": true,
     "x": 128,
     "y": 800,
     "width": 32,
     "height": 32,
     "gid": 322
    },
    {
     "id": 113,
     "name": "",
     "rotation": 0,
     "type": "",
     "visible": true,
     "x": 160,
     "y": 800,
     "width": 32,
     "height": 32,
     "gid": 323
    },
    {
     "id": 114,
     "name": "",
     "rotation": 0,
     "type": "",
     "visible": true,
     "x": 192,
     "y": 800,
     "width": 32,
     "height": 32,
     "gid": 323
    },
    {
     "id": 115,
     "name": "",
     "rotation": 0,
     "type": "",
     "visible": true,
     "x": 224,
     "y": 800,
     "width": 32,
     "height": 32,
     "gid": 323
    },
    {
     "id": 116,
     "name": "",
     "rotation": 0,
     "type": "",
     "visible": true,
     "x": 256,
     "y": 800,
     "width": 32,
     "height": 32,
     "gid": 323
    },
    {
     "id": 117,
     "name": "",
     "rotation": 0,
     "type": "",
     "visible": true,
     "x": 288,
     "y": 800,
     "width": 32,
     "height": 32,
     "gid": 324
    },
    {
     "id": 118,
     "name": "",
     "rotation": 0,
     "type": "",
     "visible": true,
     "x": 160,
     "y": 800,
     "width": 32,
     "height": 32,
     "gid": 414
    },
    {
     "id": 119,
     "name": "",
     "rotation": 0,
     "type": "",
     "visible": true,
     "x": 192,
     "y": 800,
     "width": 32,
     "height": 32,
     "gid": 415
    },
    {
     "id": 120,
     "name": "",
     "rotation": 0,
     "type": "",
     "visible": true,
     "x": 224,
     "y": 800,
     "width": 32,
     "height": 32,
     "gid": 416
    },
    {
     "id": 121,
     "name": "",
     "rotation": 0,
     "type": "",
     "visible": true,
     "x": 256,
     "y": 800,
     "width": 32,
     "height": 32,
     "gid": 375
    },
    {
     "id": 122,
     "name": "",
     "rotation": 0,
     "type": "",
     "visible": true,
     "x": 256,
     "y": 736,
     "width": 32,
     "height": 32,
     "gid": 343
    },
    {
     "id": 123,
     "name": "",
     "rotation": 0,
     "type": "",
     "visible": true,
     "x": 160,
     "y": 768,
     "width": 32,
     "height": 32,
     "gid": 398
    },
    {
     "id": 124,
     "name": "",
     "rotation": 0,
     "type": "",
     "visible": true,
     "x": 192,
     "y": 768,
     "width": 32,
     "height": 32,
     "gid": 399
    },
    {
     "id": 125,
     "name": "",
     "rotation": 0,
     "type": "",
     "visible": true,
     "x": 224,
     "y": 768,
     "width": 32,
     "height": 32,
     "gid": 400
    },
    {
     "id": 126,
     "name": "",
     "rotation": 0,
     "type": "",
     "visible": true,
     "x": 256,
     "y": 768,
     "width": 32,
     "height": 32,
     "gid": 359
    },
    {
     "id": 131,
     "name": "",
     "rotation": 0,
     "type": "",
     "visible": true,
     "x": 32,
     "y": 928,
     "width": 32,
     "height": 32,
     "gid": 547
    },
    {
     "id": 132,
     "name": "",
     "rotation": 0,
     "type": "",
     "visible": true,
     "x": 64,
     "y": 928,
     "width": 32,
     "height": 32,
     "gid": 548
    },
    {
     "id": 133,
     "name": "",
     "rotation": 0,
     "type": "",
     "visible": true,
     "x": 96,
     "y": 928,
     "width": 32,
     "height": 32,
     "gid": 549
    },
    {
     "id": 134,
     "name": "",
     "rotation": 0,
     "type": "",
     "visible": true,
     "x": 32,
     "y": 960,
     "width": 32,
     "height": 32,
     "gid": 563
    },
    {
     "id": 135,
     "name": "",
     "rotation": 0,
     "type": "",
     "visible": true,
     "x": 64,
     "y": 960,
     "width": 32,
     "height": 32,
     "gid": 564
    },
    {
     "id": 136,
     "name": "",
     "rotation": 0,
     "type": "",
     "visible": true,
     "x": 96,
     "y": 960,
     "width": 32,
     "height": 32,
     "gid": 565
    },
    {
     "id": 137,
     "name": "",
     "rotation": 0,
     "type": "",
     "visible": true,
     "x": 32,
     "y": 992,
     "width": 32,
     "height": 32,
     "gid": 579
    },
    {
     "id": 138,
     "name": "",
     "rotation": 0,
     "type": "",
     "visible": true,
     "x": 64,
     "y": 992,
     "width": 32,
     "height": 32,
     "gid": 580
    },
    {
     "id": 139,
     "name": "",
     "rotation": 0,
     "type": "",
     "visible": true,
     "x": 96,
     "y": 992,
     "width": 32,
     "height": 32,
     "gid": 581
    },
    {
     "id": 141,
     "name": "",
     "rotation": 0,
     "type": "",
     "visible": true,
     "x": 416,
     "y": 992,
     "width": 32,
     "height": 32,
     "gid": 375
    },
    {
     "id": 142,
     "name": "",
     "rotation": 0,
     "type": "",
     "visible": true,
     "x": 416,
     "y": 928,
     "width": 32,
     "height": 32,
     "gid": 343
    },
    {
     "id": 143,
     "name": "",
     "rotation": 0,
     "type": "",
     "visible": true,
     "x": 416,
     "y": 960,
     "width": 32,
     "height": 32,
     "gid": 359
    },
    {
     "id": 147,
     "name": "",
     "rotation": 0,
     "type": "",
     "visible": true,
     "x": 480,
     "y": 32,
     "width": 32,
     "height": 32,
     "gid": 472
    },
    {
     "id": 148,
     "name": "",
     "rotation": 0,
     "type": "",
     "visible": true,
     "x": 512,
     "y": 32,
     "width": 32,
     "height": 32,
     "gid": 473
    },
    {
     "id": 149,
     "name": "",
     "rotation": 0,
     "type": "",
     "visible": true,
     "x": 480,
     "y": 64,
     "width": 32,
     "height": 32,
     "gid": 488
    },
    {
     "id": 150,
     "name": "",
     "rotation": 0,
     "type": "",
     "visible": true,
     "x": 512,
     "y": 64,
     "width": 32,
     "height": 32,
     "gid": 489
    },
    {
     "id": 151,
     "name": "",
     "rotation": 0,
     "type": "",
     "visible": true,
     "x": 480,
     "y": 96,
     "width": 32,
     "height": 32,
     "gid": 504
    },
    {
     "id": 152,
     "name": "",
     "rotation": 0,
     "type": "",
     "visible": true,
     "x": 512,
     "y": 96,
     "width": 32,
     "height": 32,
     "gid": 505
    },
    {
     "id": 154,
     "name": "",
     "rotation": 0,
     "type": "",
     "visible": true,
     "x": 544,
     "y": 32,
     "width": 32,
     "height": 32,
     "gid": 417
    },
    {
     "id": 155,
     "name": "",
     "rotation": 0,
     "type": "",
     "visible": true,
     "x": 576,
     "y": 32,
     "width": 32,
     "height": 32,
     "gid": 418
    },
    {
     "id": 156,
     "name": "",
     "rotation": 0,
     "type": "",
     "visible": true,
     "x": 544,
     "y": 64,
     "width": 32,
     "height": 32,
     "gid": 433
    },
    {
     "id": 157,
     "name": "",
     "rotation": 0,
     "type": "",
     "visible": true,
     "x": 576,
     "y": 64,
     "width": 32,
     "height": 32,
     "gid": 434
    },
    {
     "id": 159,
     "name": "",
     "rotation": 0,
     "type": "",
     "visible": true,
     "x": 960,
     "y": 32,
     "width": 32,
     "height": 32,
     "gid": 361
    },
    {
     "id": 160,
     "name": "",
     "rotation": 0,
     "type": "",
     "visible": true,
     "x": 992,
     "y": 32,
     "width": 32,
     "height": 32,
     "gid": 362
    },
    {
     "id": 161,
     "name": "",
     "rotation": 0,
     "type": "",
     "visible": true,
     "x": 960,
     "y": 64,
     "width": 32,
     "height": 32,
     "gid": 377
    },
    {
     "id": 162,
     "name": "",
     "rotation": 0,
     "type": "",
     "visible": true,
     "x": 992,
     "y": 64,
     "width": 32,
     "height": 32,
     "gid": 378
    },
    {
     "id": 164,
     "name": "",
     "rotation": 0,
     "type": "",
     "visible": true,
     "x": 576,
     "y": 256,
     "width": 32,
     "height": 32,
     "gid": 680
    },
    {
     "id": 165,
     "name": "",
     "rotation": 0,
     "type": "",
     "visible": true,
     "x": 608,
     "y": 256,
     "width": 32,
     "height": 32,
     "gid": 681
    },
    {
     "id": 166,
     "name": "",
     "rotation": 0,
     "type": "",
     "visible": true,
     "x": 640,
     "y": 256,
     "width": 32,
     "height": 32,
     "gid": 681
    },
    {
     "id": 167,
     "name": "",
     "rotation": 0,
     "type": "",
     "visible": true,
     "x": 672,
     "y": 256,
     "width": 32,
     "height": 32,
     "gid": 681
    },
    {
     "id": 168,
     "name": "",
     "rotation": 0,
     "type": "",
     "visible": true,
     "x": 704,
     "y": 256,
     "width": 32,
     "height": 32,
     "gid": 681
    },
    {
     "id": 169,
     "name": "",
     "rotation": 0,
     "type": "",
     "visible": true,
     "x": 736,
     "y": 256,
     "width": 32,
     "height": 32,
     "gid": 682
    },
    {
     "id": 170,
     "name": "",
     "rotation": 0,
     "type": "",
     "visible": true,
     "x": 768,
     "y": 256,
     "width": 32,
     "height": 32,
     "gid": 680
    },
    {
     "id": 171,
     "name": "",
     "rotation": 0,
     "type": "",
     "visible": true,
     "x": 800,
     "y": 256,
     "width": 32,
     "height": 32,
     "gid": 681
    },
    {
     "id": 172,
     "name": "",
     "rotation": 0,
     "type": "",
     "visible": true,
     "x": 832,
     "y": 256,
     "width": 32,
     "height": 32,
     "gid": 681
    },
    {
     "id": 173,
     "name": "",
     "rotation": 0,
     "type": "",
     "visible": true,
     "x": 864,
     "y": 256,
     "width": 32,
     "height": 32,
     "gid": 681
    },
    {
     "id": 174,
     "name": "",
     "rotation": 0,
     "type": "",
     "visible": true,
     "x": 896,
     "y": 256,
     "width": 32,
     "height": 32,
     "gid": 681
    },
    {
     "id": 175,
     "name": "",
     "rotation": 0,
     "type": "",
     "visible": true,
     "x": 928,
     "y": 256,
     "width": 32,
     "height": 32,
     "gid": 682
    },
    {
     "id": 176,
     "name": "",
     "rotation": 0,
     "type": "",
     "visible": true,
     "x": 704,
     "y": 256,
     "width": 32,
     "height": 32,
     "gid": 451
    },
    {
     "id": 177,
     "name": "",
     "rotation": 0,
     "type": "",
     "visible": true,
     "x": 864,
     "y": 256,
     "width": 32,
     "height": 32,
     "gid": 451
    },
    {
     "id": 178,
     "name": "",
     "rotation": 0,
     "type": "",
     "visible": true,
     "x": 576,
     "y": 256,
     "width": 32,
     "height": 32,
     "gid": 642
    },
    {
     "id": 179,
     "name": "",
     "rotation": 0,
     "type": "",
     "visible": true,
     "x": 768,
     "y": 256,
     "width": 32,
     "height": 32,
     "gid": 645
    },
    {
     "id": 180,
     "name": "",
     "rotation": 0,
     "type": "",
     "visible": true,
     "x": 544,
     "y": 288,
     "width": 32,
     "height": 32,
     "gid": 657
    },
    {
     "id": 181,
     "name": "",
     "rotation": 0,
     "type": "",
     "visible": true,
     "x": 576,
     "y": 288,
     "width": 32,
     "height": 32,
     "gid": 658
    },
    {
     "id": 182,
     "name": "",
     "rotation": 0,
     "type": "",
     "visible": true,
     "x": 608,
     "y": 288,
     "width": 32,
     "height": 32,
     "gid": 659
    },
    {
     "id": 183,
     "name": "",
     "rotation": 0,
     "type": "",
     "visible": true,
     "x": 640,
     "y": 288,
     "width": 32,
     "height": 32,
     "gid": 659
    },
    {
     "id": 184,
     "name": "",
     "rotation": 0,
     "type": "",
     "visible": true,
     "x": 672,
     "y": 288,
     "width": 32,
     "height": 32,
     "gid": 659
    },
    {
     "id": 185,
     "name": "",
     "rotation": 0,
     "type": "",
     "visible": true,
     "x": 704,
     "y": 288,
     "width": 32,
     "height": 32,
     "gid": 659
    },
    {
     "id": 186,
     "name": "",
     "rotation": 0,
     "type": "",
     "visible": true,
     "x": 736,
     "y": 288,
     "width": 32,
     "height": 32,
     "gid": 660
    },
    {
     "id": 187,
     "name": "",
     "rotation": 0,
     "type": "",
     "visible": true,
     "x": 768,
     "y": 288,
     "width": 32,
     "height": 32,
     "gid": 661
    },
    {
     "id": 188,
     "name": "",
     "rotation": 0,
     "type": "",
     "visible": true,
     "x": 800,
     "y": 288,
     "width": 32,
     "height": 32,
     "gid": 662
    },
    {
     "id": 189,
     "name": "",
     "rotation": 0,
     "type": "",
     "visible": true,
     "x": 832,
     "y": 288,
     "width": 32,
     "height": 32,
     "gid": 662
    },
    {
     "id": 190,
     "name": "",
     "rotation": 0,
     "type": "",
     "visible": true,
     "x": 864,
     "y": 288,
     "width": 32,
     "height": 32,
     "gid": 662
    },
    {
     "id": 191,
     "name": "",
     "rotation": 0,
     "type": "",
     "visible": true,
     "x": 896,
     "y": 288,
     "width": 32,
     "height": 32,
     "gid": 662
    },
    {
     "id": 192,
     "name": "",
     "rotation": 0,
     "type": "",
     "visible": true,
     "x": 928,
     "y": 288,
     "width": 32,
     "height": 32,
     "gid": 663
    },
    {
     "id": 193,
     "name": "",
     "rotation": 0,
     "type": "",
     "visible": true,
     "x": 544,
     "y": 320,
     "width": 32,
     "height": 32,
     "gid": 673
    },
    {
     "id": 194,
     "name": "",
     "rotation": 0,
     "type": "",
     "visible": true,
     "x": 576,
     "y": 320,
     "width": 32,
     "height": 32,
     "gid": 674
    },
    {
     "id": 195,
     "name": "",
     "rotation": 0,
     "type": "",
     "visible": true,
     "x": 608,
     "y": 320,
     "width": 32,
     "height": 32,
     "gid": 675
    },
    {
     "id": 196,
     "name": "",
     "rotation": 0,
     "type": "",
     "visible": true,
     "x": 640,
     "y": 320,
     "width": 32,
     "height": 32,
     "gid": 675
    },
    {
     "id": 197,
     "name": "",
     "rotation": 0,
     "type": "",
     "visible": true,
     "x": 672,
     "y": 320,
     "width": 32,
     "height": 32,
     "gid": 675
    },
    {
     "id": 198,
     "name": "",
     "rotation": 0,
     "type": "",
     "visible": true,
     "x": 704,
     "y": 320,
     "width": 32,
     "height": 32,
     "gid": 675
    },
    {
     "id": 199,
     "name": "",
     "rotation": 0,
     "type": "",
     "visible": true,
     "x": 736,
     "y": 320,
     "width": 32,
     "height": 32,
     "gid": 676
    },
    {
     "id": 200,
     "name": "",
     "rotation": 0,
     "type": "",
     "visible": true,
     "x": 768,
     "y": 320,
     "width": 32,
     "height": 32,
     "gid": 677
    },
    {
     "id": 201,
     "name": "",
     "rotation": 0,
     "type": "",
     "visible": true,
     "x": 800,
     "y": 320,
     "width": 32,
     "height": 32,
     "gid": 678
    },
    {
     "id": 202,
     "name": "",
     "rotation": 0,
     "type": "",
     "visible": true,
     "x": 832,
     "y": 320,
     "width": 32,
     "height": 32,
     "gid": 678
    },
    {
     "id": 203,
     "name": "",
     "rotation": 0,
     "type": "",
     "visible": true,
     "x": 864,
     "y": 320,
     "width": 32,
     "height": 32,
     "gid": 678
    },
    {
     "id": 204,
     "name": "",
     "rotation": 0,
     "type": "",
     "visible": true,
     "x": 896,
     "y": 320,
     "width": 32,
     "height": 32,
     "gid": 678
    },
    {
     "id": 205,
     "name": "",
     "rotation": 0,
     "type": "",
     "visible": true,
     "x": 928,
     "y": 320,
     "width": 32,
     "height": 32,
     "gid": 679
    },
    {
     "id": 206,
     "name": "",
     "rotation": 0,
     "type": "",
     "visible": true,
     "x": 576,
     "y": 288,
     "width": 32,
     "height": 32,
     "gid": 712
    },
    {
     "id": 207,
     "name": "",
     "rotation": 0,
     "type": "",
     "visible": true,
     "x": 608,
     "y": 288,
     "width": 32,
     "height": 32,
     "gid": 713
    },
    {
     "id": 208,
     "name": "",
     "rotation": 0,
     "type": "",
     "visible": true,
     "x": 640,
     "y": 288,
     "width": 32,
     "height": 32,
     "gid": 713
    },
    {
     "id": 209,
     "name": "",
     "rotation": 0,
     "type": "",
     "visible": true,
     "x": 672,
     "y": 288,
     "width": 32,
     "height": 32,
     "gid": 713
    },
    {
     "id": 210,
     "name": "",
     "rotation": 0,
     "type": "",
     "visible": true,
     "x": 704,
     "y": 288,
     "width": 32,
     "height": 32,
     "gid": 713
    },
    {
     "id": 211,
     "name": "",
     "rotation": 0,
     "type": "",
     "visible": true,
     "x": 736,
     "y": 288,
     "width": 32,
     "height": 32,
     "gid": 714
    },
    {
     "id": 212,
     "name": "",
     "rotation": 0,
     "type": "",
     "visible": true,
     "x": 768,
     "y": 288,
     "width": 32,
     "height": 32,
     "gid": 712
    },
    {
     "id": 213,
     "name": "",
     "rotation": 0,
     "type": "",
     "visible": true,
     "x": 800,
     "y": 288,
     "width": 32,
     "height": 32,
     "gid": 713
    },
    {
     "id": 214,
     "name": "",
     "rotation": 0,
     "type": "",
     "visible": true,
     "x": 832,
     "y": 288,
     "width": 32,
     "height": 32,
     "gid": 713
    },
    {
     "id": 215,
     "name": "",
     "rotation": 0,
     "type": "",
     "visible": true,
     "x": 864,
     "y": 288,
     "width": 32,
     "height": 32,
     "gid": 713
    },
    {
     "id": 216,
     "name": "",
     "rotation": 0,
     "type": "",
     "visible": true,
     "x": 896,
     "y": 288,
     "width": 32,
     "height": 32,
     "gid": 713
    },
    {
     "id": 217,
     "name": "",
     "rotation": 0,
     "type": "",
     "visible": true,
     "x": 928,
     "y": 288,
     "width": 32,
     "height": 32,
     "gid": 714
    },
    {
     "id": 218,
     "name": "",
     "rotation": 0,
     "type": "",
     "visible": true,
     "x": 576,
     "y": 320,
     "width": 32,
     "height": 32,
     "gid": 728
    },
    {
     "id": 219,
     "name": "",
     "rotation": 0,
     "type": "",
     "visible": true,
     "x": 608,
     "y": 320,
     "width": 32,
     "height": 32,
     "gid": 729
    },
    {
     "id": 220,
     "name": "",
     "rotation": 0,
     "type": "",
     "visible": true,
     "x": 640,
     "y": 320,
     "width": 32,
     "height": 32,
     "gid": 729
    },
    {
     "id": 221,
     "name": "",
     "rotation": 0,
     "type": "",
     "visible": true,
     "x": 672,
     "y": 320,
     "width": 32,
     "height": 32,
     "gid": 729
    },
    {
     "id": 222,
     "name": "",
     "rotation": 0,
     "type": "",
     "visible": true,
     "x": 704,
     "y": 320,
     "width": 32,
     "height": 32,
     "gid": 729
    },
    {
     "id": 223,
     "name": "",
     "rotation": 0,
     "type": "",
     "visible": true,
     "x": 736,
     "y": 320,
     "width": 32,
     "height": 32,
     "gid": 730
    },
    {
     "id": 224,
     "name": "",
     "rotation": 0,
     "type": "",
     "visible": true,
     "x": 768,
     "y": 320,
     "width": 32,
     "height": 32,
     "gid": 728
    },
    {
     "id": 225,
     "name": "",
     "rotation": 0,
     "type": "",
     "visible": true,
     "x": 800,
     "y": 320,
     "width": 32,
     "height": 32,
     "gid": 729
    },
    {
     "id": 226,
     "name": "",
     "rotation": 0,
     "type": "",
     "visible": true,
     "x": 832,
     "y": 320,
     "width": 32,
     "height": 32,
     "gid": 729
    },
    {
     "id": 227,
     "name": "",
     "rotation": 0,
     "type": "",
     "visible": true,
     "x": 864,
     "y": 320,
     "width": 32,
     "height": 32,
     "gid": 729
    },
    {
     "id": 228,
     "name": "",
     "rotation": 0,
     "type": "",
     "visible": true,
     "x": 896,
     "y": 320,
     "width": 32,
     "height": 32,
     "gid": 729
    },
    {
     "id": 229,
     "name": "",
     "rotation": 0,
     "type": "",
     "visible": true,
     "x": 928,
     "y": 320,
     "width": 32,
     "height": 32,
     "gid": 730
    },
    {
     "id": 230,
     "name": "",
     "rotation": 0,
     "type": "",
     "visible": true,
     "x": 608,
     "y": 288,
     "width": 32,
     "height": 32,
     "gid": 391
    },
    {
     "id": 231,
     "name": "",
     "rotation": 0,
     "type": "",
     "visible": true,
     "x": 672,
     "y": 288,
     "width": 32,
     "height": 32,
     "gid": 654
    },
    {
     "id": 232,
     "name": "",
     "rotation": 0,
     "type": "",
     "visible": true,
     "x": 704,
     "y": 288,
     "width": 32,
     "height": 32,
     "gid": 655
    },
    {
     "id": 233,
     "name": "",
     "rotation": 0,
     "type": "",
     "visible": true,
     "x": 736,
     "y": 288,
     "width": 32,
     "height": 32,
     "gid": 656
    },
    {
     "id": 234,
     "name": "",
     "rotation": 0,
     "type": "",
     "visible": true,
     "x": 800,
     "y": 288,
     "width": 32,
     "height": 32,
     "gid": 379
    },
    {
     "id": 235,
     "name": "",
     "rotation": 0,
     "type": "",
     "visible": true,
     "x": 832,
     "y": 288,
     "width": 32,
     "height": 32,
     "gid": 651
    },
    {
     "id": 236,
     "name": "",
     "rotation": 0,
     "type": "",
     "visible": true,
     "x": 864,
     "y": 288,
     "width": 32,
     "height": 32,
     "gid": 652
    },
    {
     "id": 237,
     "name": "",
     "rotation": 0,
     "type": "",
     "visible": true,
     "x": 896,
     "y": 288,
     "width": 32,
     "height": 32,
     "gid": 653
    },
    {
     "id": 238,
     "name": "",
     "rotation": 0,
     "type": "",
     "visible": true,
     "x": 608,
     "y": 320,
     "width": 32,
     "height": 32,
     "gid": 407
    },
    {
     "id": 239,
     "name": "",
     "rotation": 0,
     "type": "",
     "visible": true,
     "x": 672,
     "y": 320,
     "width": 32,
     "height": 32,
     "gid": 670
    },
    {
     "id": 240,
     "name": "",
     "rotation": 0,
     "type": "",
     "visible": true,
     "x": 704,
     "y": 320,
     "width": 32,
     "height": 32,
     "gid": 671
    },
    {
     "id": 241,
     "name": "",
     "rotation": 0,
     "type": "",
     "visible": true,
     "x": 736,
     "y": 320,
     "width": 32,
     "height": 32,
     "gid": 672
    },
    {
     "id": 242,
     "name": "",
     "rotation": 0,
     "type": "",
     "visible": true,
     "x": 832,
     "y": 320,
     "width": 32,
     "height": 32,
     "gid": 667
    },
    {
     "id": 243,
     "name": "",
     "rotation": 0,
     "type": "",
     "visible": true,
     "x": 864,
     "y": 320,
     "width": 32,
     "height": 32,
     "gid": 668
    },
    {
     "id": 244,
     "name": "",
     "rotation": 0,
     "type": "",
     "visible": true,
     "x": 896,
     "y": 320,
     "width": 32,
     "height": 32,
     "gid": 669
    },
    {
     "id": 245,
     "name": "",
     "rotation": 0,
     "type": "",
     "visible": true,
     "x": 544,
     "y": 256,
     "width": 32,
     "height": 32,
     "gid": 641
    },
    {
     "id": 246,
     "name": "",
     "rotation": 0,
     "type": "",
     "visible": true,
     "x": 608,
     "y": 256,
     "width": 32,
     "height": 32,
     "gid": 366
    },
    {
     "id": 247,
     "name": "",
     "rotation": 0,
     "type": "",
     "visible": true,
     "x": 640,
     "y": 256,
     "width": 32,
     "height": 32,
     "gid": 367
    },
    {
     "id": 248,
     "name": "",
     "rotation": 0,
     "type": "",
     "visible": true,
     "x": 672,
     "y": 256,
     "width": 32,
     "height": 32,
     "gid": 368
    },
    {
     "id": 249,
     "name": "",
     "rotation": 0,
     "type": "",
     "visible": true,
     "x": 736,
     "y": 256,
     "width": 32,
     "height": 32,
     "gid": 641
    },
    {
     "id": 250,
     "name": "",
     "rotation": 0,
     "type": "",
     "visible": true,
     "x": 800,
     "y": 256,
     "width": 32,
     "height": 32,
     "gid": 391
    },
    {
     "id": 251,
     "name": "",
     "rotation": 0,
     "type": "",
     "visible": true,
     "x": 832,
     "y": 256,
     "width": 32,
     "height": 32,
     "gid": 348
    },
    {
     "id": 252,
     "name": "",
     "rotation": 0,
     "type": "",
     "visible": true,
     "x": 896,
     "y": 256,
     "width": 32,
     "height": 32,
     "gid": 400
    },
    {
     "id": 253,
     "name": "",
     "rotation": 0,
     "type": "",
     "visible": true,
     "x": 928,
     "y": 256,
     "width": 32,
     "height": 32,
     "gid": 641
    },
    {
     "id": 260,
     "name": "",
     "rotation": 0,
     "type": "",
     "visible": true,
     "x": 1024,
     "y": 416,
     "width": 32,
     "height": 32,
     "gid": 680
    },
    {
     "id": 261,
     "name": "",
     "rotation": 0,
     "type": "",
     "visible": true,
     "x": 1056,
     "y": 416,
     "width": 32,
     "height": 32,
     "gid": 681
    },
    {
     "id": 262,
     "name": "",
     "rotation": 0,
     "type": "",
     "visible": true,
     "x": 1088,
     "y": 416,
     "width": 32,
     "height": 32,
     "gid": 681
    },
    {
     "id": 263,
     "name": "",
     "rotation": 0,
     "type": "",
     "visible": true,
     "x": 1120,
     "y": 416,
     "width": 32,
     "height": 32,
     "gid": 681
    },
    {
     "id": 264,
     "name": "",
     "rotation": 0,
     "type": "",
     "visible": true,
     "x": 1152,
     "y": 416,
     "width": 32,
     "height": 32,
     "gid": 681
    },
    {
     "id": 265,
     "name": "",
     "rotation": 0,
     "type": "",
     "visible": true,
     "x": 1184,
     "y": 416,
     "width": 32,
     "height": 32,
     "gid": 682
    },
    {
     "id": 266,
     "name": "",
     "rotation": 0,
     "type": "",
     "visible": true,
     "x": 1216,
     "y": 416,
     "width": 32,
     "height": 32,
     "gid": 680
    },
    {
     "id": 267,
     "name": "",
     "rotation": 0,
     "type": "",
     "visible": true,
     "x": 1248,
     "y": 416,
     "width": 32,
     "height": 32,
     "gid": 681
    },
    {
     "id": 268,
     "name": "",
     "rotation": 0,
     "type": "",
     "visible": true,
     "x": 1280,
     "y": 416,
     "width": 32,
     "height": 32,
     "gid": 681
    },
    {
     "id": 269,
     "name": "",
     "rotation": 0,
     "type": "",
     "visible": true,
     "x": 1312,
     "y": 416,
     "width": 32,
     "height": 32,
     "gid": 681
    },
    {
     "id": 270,
     "name": "",
     "rotation": 0,
     "type": "",
     "visible": true,
     "x": 1344,
     "y": 416,
     "width": 32,
     "height": 32,
     "gid": 681
    },
    {
     "id": 271,
     "name": "",
     "rotation": 0,
     "type": "",
     "visible": true,
     "x": 1376,
     "y": 416,
     "width": 32,
     "height": 32,
     "gid": 682
    },
    {
     "id": 272,
     "name": "",
     "rotation": 0,
     "type": "",
     "visible": true,
     "x": 1152,
     "y": 416,
     "width": 32,
     "height": 32,
     "gid": 451
    },
    {
     "id": 273,
     "name": "",
     "rotation": 0,
     "type": "",
     "visible": true,
     "x": 1312,
     "y": 416,
     "width": 32,
     "height": 32,
     "gid": 451
    },
    {
     "id": 274,
     "name": "",
     "rotation": 0,
     "type": "",
     "visible": true,
     "x": 1024,
     "y": 416,
     "width": 32,
     "height": 32,
     "gid": 642
    },
    {
     "id": 275,
     "name": "",
     "rotation": 0,
     "type": "",
     "visible": true,
     "x": 1216,
     "y": 416,
     "width": 32,
     "height": 32,
     "gid": 645
    },
    {
     "id": 276,
     "name": "",
     "rotation": 0,
     "type": "",
     "visible": true,
     "x": 992,
     "y": 448,
     "width": 32,
     "height": 32,
     "gid": 657
    },
    {
     "id": 277,
     "name": "",
     "rotation": 0,
     "type": "",
     "visible": true,
     "x": 1024,
     "y": 448,
     "width": 32,
     "height": 32,
     "gid": 658
    },
    {
     "id": 278,
     "name": "",
     "rotation": 0,
     "type": "",
     "visible": true,
     "x": 1056,
     "y": 448,
     "width": 32,
     "height": 32,
     "gid": 659
    },
    {
     "id": 279,
     "name": "",
     "rotation": 0,
     "type": "",
     "visible": true,
     "x": 1088,
     "y": 448,
     "width": 32,
     "height": 32,
     "gid": 659
    },
    {
     "id": 280,
     "name": "",
     "rotation": 0,
     "type": "",
     "visible": true,
     "x": 1120,
     "y": 448,
     "width": 32,
     "height": 32,
     "gid": 659
    },
    {
     "id": 281,
     "name": "",
     "rotation": 0,
     "type": "",
     "visible": true,
     "x": 1152,
     "y": 448,
     "width": 32,
     "height": 32,
     "gid": 659
    },
    {
     "id": 282,
     "name": "",
     "rotation": 0,
     "type": "",
     "visible": true,
     "x": 1184,
     "y": 448,
     "width": 32,
     "height": 32,
     "gid": 660
    },
    {
     "id": 283,
     "name": "",
     "rotation": 0,
     "type": "",
     "visible": true,
     "x": 1216,
     "y": 448,
     "width": 32,
     "height": 32,
     "gid": 661
    },
    {
     "id": 284,
     "name": "",
     "rotation": 0,
     "type": "",
     "visible": true,
     "x": 1248,
     "y": 448,
     "width": 32,
     "height": 32,
     "gid": 662
    },
    {
     "id": 285,
     "name": "",
     "rotation": 0,
     "type": "",
     "visible": true,
     "x": 1280,
     "y": 448,
     "width": 32,
     "height": 32,
     "gid": 662
    },
    {
     "id": 286,
     "name": "",
     "rotation": 0,
     "type": "",
     "visible": true,
     "x": 1312,
     "y": 448,
     "width": 32,
     "height": 32,
     "gid": 662
    },
    {
     "id": 287,
     "name": "",
     "rotation": 0,
     "type": "",
     "visible": true,
     "x": 1344,
     "y": 448,
     "width": 32,
     "height": 32,
     "gid": 662
    },
    {
     "id": 288,
     "name": "",
     "rotation": 0,
     "type": "",
     "visible": true,
     "x": 1376,
     "y": 448,
     "width": 32,
     "height": 32,
     "gid": 663
    },
    {
     "id": 289,
     "name": "",
     "rotation": 0,
     "type": "",
     "visible": true,
     "x": 992,
     "y": 480,
     "width": 32,
     "height": 32,
     "gid": 673
    },
    {
     "id": 290,
     "name": "",
     "rotation": 0,
     "type": "",
     "visible": true,
     "x": 1024,
     "y": 480,
     "width": 32,
     "height": 32,
     "gid": 674
    },
    {
     "id": 291,
     "name": "",
     "rotation": 0,
     "type": "",
     "visible": true,
     "x": 1056,
     "y": 480,
     "width": 32,
     "height": 32,
     "gid": 675
    },
    {
     "id": 292,
     "name": "",
     "rotation": 0,
     "type": "",
     "visible": true,
     "x": 1088,
     "y": 480,
     "width": 32,
     "height": 32,
     "gid": 675
    },
    {
     "id": 293,
     "name": "",
     "rotation": 0,
     "type": "",
     "visible": true,
     "x": 1120,
     "y": 480,
     "width": 32,
     "height": 32,
     "gid": 675
    },
    {
     "id": 294,
     "name": "",
     "rotation": 0,
     "type": "",
     "visible": true,
     "x": 1152,
     "y": 480,
     "width": 32,
     "height": 32,
     "gid": 675
    },
    {
     "id": 295,
     "name": "",
     "rotation": 0,
     "type": "",
     "visible": true,
     "x": 1184,
     "y": 480,
     "width": 32,
     "height": 32,
     "gid": 676
    },
    {
     "id": 296,
     "name": "",
     "rotation": 0,
     "type": "",
     "visible": true,
     "x": 1216,
     "y": 480,
     "width": 32,
     "height": 32,
     "gid": 677
    },
    {
     "id": 297,
     "name": "",
     "rotation": 0,
     "type": "",
     "visible": true,
     "x": 1248,
     "y": 480,
     "width": 32,
     "height": 32,
     "gid": 678
    },
    {
     "id": 298,
     "name": "",
     "rotation": 0,
     "type": "",
     "visible": true,
     "x": 1280,
     "y": 480,
     "width": 32,
     "height": 32,
     "gid": 678
    },
    {
     "id": 299,
     "name": "",
     "rotation": 0,
     "type": "",
     "visible": true,
     "x": 1312,
     "y": 480,
     "width": 32,
     "height": 32,
     "gid": 678
    },
    {
     "id": 300,
     "name": "",
     "rotation": 0,
     "type": "",
     "visible": true,
     "x": 1344,
     "y": 480,
     "width": 32,
     "height": 32,
     "gid": 678
    },
    {
     "id": 301,
     "name": "",
     "rotation": 0,
     "type": "",
     "visible": true,
     "x": 1376,
     "y": 480,
     "width": 32,
     "height": 32,
     "gid": 679
    },
    {
     "id": 302,
     "name": "",
     "rotation": 0,
     "type": "",
     "visible": true,
     "x": 1024,
     "y": 448,
     "width": 32,
     "height": 32,
     "gid": 712
    },
    {
     "id": 303,
     "name": "",
     "rotation": 0,
     "type": "",
     "visible": true,
     "x": 1056,
     "y": 448,
     "width": 32,
     "height": 32,
     "gid": 713
    },
    {
     "id": 304,
     "name": "",
     "rotation": 0,
     "type": "",
     "visible": true,
     "x": 1088,
     "y": 448,
     "width": 32,
     "height": 32,
     "gid": 713
    },
    {
     "id": 305,
     "name": "",
     "rotation": 0,
     "type": "",
     "visible": true,
     "x": 1120,
     "y": 448,
     "width": 32,
     "height": 32,
     "gid": 713
    },
    {
     "id": 306,
     "name": "",
     "rotation": 0,
     "type": "",
     "visible": true,
     "x": 1152,
     "y": 448,
     "width": 32,
     "height": 32,
     "gid": 713
    },
    {
     "id": 307,
     "name": "",
     "rotation": 0,
     "type": "",
     "visible": true,
     "x": 1184,
     "y": 448,
     "width": 32,
     "height": 32,
     "gid": 714
    },
    {
     "id": 308,
     "name": "",
     "rotation": 0,
     "type": "",
     "visible": true,
     "x": 1216,
     "y": 448,
     "width": 32,
     "height": 32,
     "gid": 712
    },
    {
     "id": 309,
     "name": "",
     "rotation": 0,
     "type": "",
     "visible": true,
     "x": 1248,
     "y": 448,
     "width": 32,
     "height": 32,
     "gid": 713
    },
    {
     "id": 310,
     "name": "",
     "rotation": 0,
     "type": "",
     "visible": true,
     "x": 1280,
     "y": 448,
     "width": 32,
     "height": 32,
     "gid": 713
    },
    {
     "id": 311,
     "name": "",
     "rotation": 0,
     "type": "",
     "visible": true,
     "x": 1312,
     "y": 448,
     "width": 32,
     "height": 32,
     "gid": 713
    },
    {
     "id": 312,
     "name": "",
     "rotation": 0,
     "type": "",
     "visible": true,
     "x": 1344,
     "y": 448,
     "width": 32,
     "height": 32,
     "gid": 713
    },
    {
     "id": 313,
     "name": "",
     "rotation": 0,
     "type": "",
     "visible": true,
     "x": 1376,
     "y": 448,
     "width": 32,
     "height": 32,
     "gid": 714
    },
    {
     "id": 314,
     "name": "",
     "rotation": 0,
     "type": "",
     "visible": true,
     "x": 1024,
     "y": 480,
     "width": 32,
     "height": 32,
     "gid": 728
    },
    {
     "id": 315,
     "name": "",
     "rotation": 0,
     "type": "",
     "visible": true,
     "x": 1056,
     "y": 480,
     "width": 32,
     "height": 32,
     "gid": 729
    },
    {
     "id": 316,
     "name": "",
     "rotation": 0,
     "type": "",
     "visible": true,
     "x": 1088,
     "y": 480,
     "width": 32,
     "height": 32,
     "gid": 729
    },
    {
     "id": 317,
     "name": "",
     "rotation": 0,
     "type": "",
     "visible": true,
     "x": 1120,
     "y": 480,
     "width": 32,
     "height": 32,
     "gid": 729
    },
    {
     "id": 318,
     "name": "",
     "rotation": 0,
     "type": "",
     "visible": true,
     "x": 1152,
     "y": 480,
     "width": 32,
     "height": 32,
     "gid": 729
    },
    {
     "id": 319,
     "name": "",
     "rotation": 0,
     "type": "",
     "visible": true,
     "x": 1184,
     "y": 480,
     "width": 32,
     "height": 32,
     "gid": 730
    },
    {
     "id": 320,
     "name": "",
     "rotation": 0,
     "type": "",
     "visible": true,
     "x": 1216,
     "y": 480,
     "width": 32,
     "height": 32,
     "gid": 728
    },
    {
     "id": 321,
     "name": "",
     "rotation": 0,
     "type": "",
     "visible": true,
     "x": 1248,
     "y": 480,
     "width": 32,
     "height": 32,
     "gid": 729
    },
    {
     "id": 322,
     "name": "",
     "rotation": 0,
     "type": "",
     "visible": true,
     "x": 1280,
     "y": 480,
     "width": 32,
     "height": 32,
     "gid": 729
    },
    {
     "id": 323,
     "name": "",
     "rotation": 0,
     "type": "",
     "visible": true,
     "x": 1312,
     "y": 480,
     "width": 32,
     "height": 32,
     "gid": 729
    },
    {
     "id": 324,
     "name": "",
     "rotation": 0,
     "type": "",
     "visible": true,
     "x": 1344,
     "y": 480,
     "width": 32,
     "height": 32,
     "gid": 729
    },
    {
     "id": 325,
     "name": "",
     "rotation": 0,
     "type": "",
     "visible": true,
     "x": 1376,
     "y": 480,
     "width": 32,
     "height": 32,
     "gid": 730
    },
    {
     "id": 326,
     "name": "",
     "rotation": 0,
     "type": "",
     "visible": true,
     "x": 1056,
     "y": 448,
     "width": 32,
     "height": 32,
     "gid": 391
    },
    {
     "id": 327,
     "name": "",
     "rotation": 0,
     "type": "",
     "visible": true,
     "x": 1120,
     "y": 448,
     "width": 32,
     "height": 32,
     "gid": 654
    },
    {
     "id": 328,
     "name": "",
     "rotation": 0,
     "type": "",
     "visible": true,
     "x": 1152,
     "y": 448,
     "width": 32,
     "height": 32,
     "gid": 655
    },
    {
     "id": 329,
     "name": "",
     "rotation": 0,
     "type": "",
     "visible": true,
     "x": 1184,
     "y": 448,
     "width": 32,
     "height": 32,
     "gid": 656
    },
    {
     "id": 330,
     "name": "",
     "rotation": 0,
     "type": "",
     "visible": true,
     "x": 1248,
     "y": 448,
     "width": 32,
     "height": 32,
     "gid": 379
    },
    {
     "id": 331,
     "name": "",
     "rotation": 0,
     "type": "",
     "visible": true,
     "x": 1280,
     "y": 448,
     "width": 32,
     "height": 32,
     "gid": 651
    },
    {
     "id": 332,
     "name": "",
     "rotation": 0,
     "type": "",
     "visible": true,
     "x": 1312,
     "y": 448,
     "width": 32,
     "height": 32,
     "gid": 652
    },
    {
     "id": 333,
     "name": "",
     "rotation": 0,
     "type": "",
     "visible": true,
     "x": 1344,
     "y": 448,
     "width": 32,
     "height": 32,
     "gid": 653
    },
    {
     "id": 334,
     "name": "",
     "rotation": 0,
     "type": "",
     "visible": true,
     "x": 1056,
     "y": 480,
     "width": 32,
     "height": 32,
     "gid": 407
    },
    {
     "id": 335,
     "name": "",
     "rotation": 0,
     "type": "",
     "visible": true,
     "x": 1120,
     "y": 480,
     "width": 32,
     "height": 32,
     "gid": 670
    },
    {
     "id": 336,
     "name": "",
     "rotation": 0,
     "type": "",
     "visible": true,
     "x": 1152,
     "y": 480,
     "width": 32,
     "height": 32,
     "gid": 671
    },
    {
     "id": 337,
     "name": "",
     "rotation": 0,
     "type": "",
     "visible": true,
     "x": 1184,
     "y": 480,
     "width": 32,
     "height": 32,
     "gid": 672
    },
    {
     "id": 338,
     "name": "",
     "rotation": 0,
     "type": "",
     "visible": true,
     "x": 1280,
     "y": 480,
     "width": 32,
     "height": 32,
     "gid": 667
    },
    {
     "id": 339,
     "name": "",
     "rotation": 0,
     "type": "",
     "visible": true,
     "x": 1312,
     "y": 480,
     "width": 32,
     "height": 32,
     "gid": 668
    },
    {
     "id": 340,
     "name": "",
     "rotation": 0,
     "type": "",
     "visible": true,
     "x": 1344,
     "y": 480,
     "width": 32,
     "height": 32,
     "gid": 669
    },
    {
     "id": 341,
     "name": "",
     "rotation": 0,
     "type": "",
     "visible": true,
     "x": 992,
     "y": 416,
     "width": 32,
     "height": 32,
     "gid": 641
    },
    {
     "id": 342,
     "name": "",
     "rotation": 0,
     "type": "",
     "visible": true,
     "x": 1056,
     "y": 416,
     "width": 32,
     "height": 32,
     "gid": 366
    },
    {
     "id": 343,
     "name": "",
     "rotation": 0,
     "type": "",
     "visible": true,
     "x": 1088,
     "y": 416,
     "width": 32,
     "height": 32,
     "gid": 367
    },
    {
     "id": 344,
     "name": "",
     "rotation": 0,
     "type": "",
     "visible": true,
     "x": 1120,
     "y": 416,
     "width": 32,
     "height": 32,
     "gid": 368
    },
    {
     "id": 345,
     "name": "",
     "rotation": 0,
     "type": "",
     "visible": true,
     "x": 1184,
     "y": 416,
     "width": 32,
     "height": 32,
     "gid": 641
    },
    {
     "id": 346,
     "name": "",
     "rotation": 0,
     "type": "",
     "visible": true,
     "x": 1248,
     "y": 416,
     "width": 32,
     "height": 32,
     "gid": 391
    },
    {
     "id": 347,
     "name": "",
     "rotation": 0,
     "type": "",
     "visible": true,
     "x": 1280,
     "y": 416,
     "width": 32,
     "height": 32,
     "gid": 348
    },
    {
     "id": 348,
     "name": "",
     "rotation": 0,
     "type": "",
     "visible": true,
     "x": 1344,
     "y": 416,
     "width": 32,
     "height": 32,
     "gid": 400
    },
    {
     "id": 349,
     "name": "",
     "rotation": 0,
     "type": "",
     "visible": true,
     "x": 1376,
     "y": 416,
     "width": 32,
     "height": 32,
     "gid": 641
    },
    {
     "id": 356,
     "name": "",
     "rotation": 0,
     "type": "",
     "visible": true,
     "x": 608,
     "y": 640,
     "width": 32,
     "height": 32,
     "gid": 680
    },
    {
     "id": 357,
     "name": "",
     "rotation": 0,
     "type": "",
     "visible": true,
     "x": 640,
     "y": 640,
     "width": 32,
     "height": 32,
     "gid": 681
    },
    {
     "id": 358,
     "name": "",
     "rotation": 0,
     "type": "",
     "visible": true,
     "x": 672,
     "y": 640,
     "width": 32,
     "height": 32,
     "gid": 681
    },
    {
     "id": 359,
     "name": "",
     "rotation": 0,
     "type": "",
     "visible": true,
     "x": 704,
     "y": 640,
     "width": 32,
     "height": 32,
     "gid": 681
    },
    {
     "id": 360,
     "name": "",
     "rotation": 0,
     "type": "",
     "visible": true,
     "x": 736,
     "y": 640,
     "width": 32,
     "height": 32,
     "gid": 681
    },
    {
     "id": 361,
     "name": "",
     "rotation": 0,
     "type": "",
     "visible": true,
     "x": 768,
     "y": 640,
     "width": 32,
     "height": 32,
     "gid": 682
    },
    {
     "id": 362,
     "name": "",
     "rotation": 0,
     "type": "",
     "visible": true,
     "x": 800,
     "y": 640,
     "width": 32,
     "height": 32,
     "gid": 680
    },
    {
     "id": 363,
     "name": "",
     "rotation": 0,
     "type": "",
     "visible": true,
     "x": 832,
     "y": 640,
     "width": 32,
     "height": 32,
     "gid": 681
    },
    {
     "id": 364,
     "name": "",
     "rotation": 0,
     "type": "",
     "visible": true,
     "x": 864,
     "y": 640,
     "width": 32,
     "height": 32,
     "gid": 681
    },
    {
     "id": 365,
     "name": "",
     "rotation": 0,
     "type": "",
     "visible": true,
     "x": 896,
     "y": 640,
     "width": 32,
     "height": 32,
     "gid": 681
    },
    {
     "id": 366,
     "name": "",
     "rotation": 0,
     "type": "",
     "visible": true,
     "x": 928,
     "y": 640,
     "width": 32,
     "height": 32,
     "gid": 681
    },
    {
     "id": 367,
     "name": "",
     "rotation": 0,
     "type": "",
     "visible": true,
     "x": 960,
     "y": 640,
     "width": 32,
     "height": 32,
     "gid": 682
    },
    {
     "id": 368,
     "name": "",
     "rotation": 0,
     "type": "",
     "visible": true,
     "x": 736,
     "y": 640,
     "width": 32,
     "height": 32,
     "gid": 451
    },
    {
     "id": 369,
     "name": "",
     "rotation": 0,
     "type": "",
     "visible": true,
     "x": 896,
     "y": 640,
     "width": 32,
     "height": 32,
     "gid": 451
    },
    {
     "id": 370,
     "name": "",
     "rotation": 0,
     "type": "",
     "visible": true,
     "x": 608,
     "y": 640,
     "width": 32,
     "height": 32,
     "gid": 642
    },
    {
     "id": 371,
     "name": "",
     "rotation": 0,
     "type": "",
     "visible": true,
     "x": 800,
     "y": 640,
     "width": 32,
     "height": 32,
     "gid": 645
    },
    {
     "id": 372,
     "name": "",
     "rotation": 0,
     "type": "",
     "visible": true,
     "x": 576,
     "y": 672,
     "width": 32,
     "height": 32,
     "gid": 657
    },
    {
     "id": 373,
     "name": "",
     "rotation": 0,
     "type": "",
     "visible": true,
     "x": 608,
     "y": 672,
     "width": 32,
     "height": 32,
     "gid": 658
    },
    {
     "id": 374,
     "name": "",
     "rotation": 0,
     "type": "",
     "visible": true,
     "x": 640,
     "y": 672,
     "width": 32,
     "height": 32,
     "gid": 659
    },
    {
     "id": 375,
     "name": "",
     "rotation": 0,
     "type": "",
     "visible": true,
     "x": 672,
     "y": 672,
     "width": 32,
     "height": 32,
     "gid": 659
    },
    {
     "id": 376,
     "name": "",
     "rotation": 0,
     "type": "",
     "visible": true,
     "x": 704,
     "y": 672,
     "width": 32,
     "height": 32,
     "gid": 659
    },
    {
     "id": 377,
     "name": "",
     "rotation": 0,
     "type": "",
     "visible": true,
     "x": 736,
     "y": 672,
     "width": 32,
     "height": 32,
     "gid": 659
    },
    {
     "id": 378,
     "name": "",
     "rotation": 0,
     "type": "",
     "visible": true,
     "x": 768,
     "y": 672,
     "width": 32,
     "height": 32,
     "gid": 660
    },
    {
     "id": 379,
     "name": "",
     "rotation": 0,
     "type": "",
     "visible": true,
     "x": 800,
     "y": 672,
     "width": 32,
     "height": 32,
     "gid": 661
    },
    {
     "id": 380,
     "name": "",
     "rotation": 0,
     "type": "",
     "visible": true,
     "x": 832,
     "y": 672,
     "width": 32,
     "height": 32,
     "gid": 662
    },
    {
     "id": 381,
     "name": "",
     "rotation": 0,
     "type": "",
     "visible": true,
     "x": 864,
     "y": 672,
     "width": 32,
     "height": 32,
     "gid": 662
    },
    {
     "id": 382,
     "name": "",
     "rotation": 0,
     "type": "",
     "visible": true,
     "x": 896,
     "y": 672,
     "width": 32,
     "height": 32,
     "gid": 662
    },
    {
     "id": 383,
     "name": "",
     "rotation": 0,
     "type": "",
     "visible": true,
     "x": 928,
     "y": 672,
     "width": 32,
     "height": 32,
     "gid": 662
    },
    {
     "id": 384,
     "name": "",
     "rotation": 0,
     "type": "",
     "visible": true,
     "x": 960,
     "y": 672,
     "width": 32,
     "height": 32,
     "gid": 663
    },
    {
     "id": 385,
     "name": "",
     "rotation": 0,
     "type": "",
     "visible": true,
     "x": 576,
     "y": 704,
     "width": 32,
     "height": 32,
     "gid": 673
    },
    {
     "id": 386,
     "name": "",
     "rotation": 0,
     "type": "",
     "visible": true,
     "x": 608,
     "y": 704,
     "width": 32,
     "height": 32,
     "gid": 674
    },
    {
     "id": 387,
     "name": "",
     "rotation": 0,
     "type": "",
     "visible": true,
     "x": 640,
     "y": 704,
     "width": 32,
     "height": 32,
     "gid": 675
    },
    {
     "id": 388,
     "name": "",
     "rotation": 0,
     "type": "",
     "visible": true,
     "x": 672,
     "y": 704,
     "width": 32,
     "height": 32,
     "gid": 675
    },
    {
     "id": 389,
     "name": "",
     "rotation": 0,
     "type": "",
     "visible": true,
     "x": 704,
     "y": 704,
     "width": 32,
     "height": 32,
     "gid": 675
    },
    {
     "id": 390,
     "name": "",
     "rotation": 0,
     "type": "",
     "visible": true,
     "x": 736,
     "y": 704,
     "width": 32,
     "height": 32,
     "gid": 675
    },
    {
     "id": 391,
     "name": "",
     "rotation": 0,
     "type": "",
     "visible": true,
     "x": 768,
     "y": 704,
     "width": 32,
     "height": 32,
     "gid": 676
    },
    {
     "id": 392,
     "name": "",
     "rotation": 0,
     "type": "",
     "visible": true,
     "x": 800,
     "y": 704,
     "width": 32,
     "height": 32,
     "gid": 677
    },
    {
     "id": 393,
     "name": "",
     "rotation": 0,
     "type": "",
     "visible": true,
     "x": 832,
     "y": 704,
     "width": 32,
     "height": 32,
     "gid": 678
    },
    {
     "id": 394,
     "name": "",
     "rotation": 0,
     "type": "",
     "visible": true,
     "x": 864,
     "y": 704,
     "width": 32,
     "height": 32,
     "gid": 678
    },
    {
     "id": 395,
     "name": "",
     "rotation": 0,
     "type": "",
     "visible": true,
     "x": 896,
     "y": 704,
     "width": 32,
     "height": 32,
     "gid": 678
    },
    {
     "id": 396,
     "name": "",
     "rotation": 0,
     "type": "",
     "visible": true,
     "x": 928,
     "y": 704,
     "width": 32,
     "height": 32,
     "gid": 678
    },
    {
     "id": 397,
     "name": "",
     "rotation": 0,
     "type": "",
     "visible": true,
     "x": 960,
     "y": 704,
     "width": 32,
     "height": 32,
     "gid": 679
    },
    {
     "id": 398,
     "name": "",
     "rotation": 0,
     "type": "",
     "visible": true,
     "x": 608,
     "y": 672,
     "width": 32,
     "height": 32,
     "gid": 712
    },
    {
     "id": 399,
     "name": "",
     "rotation": 0,
     "type": "",
     "visible": true,
     "x": 640,
     "y": 672,
     "width": 32,
     "height": 32,
     "gid": 713
    },
    {
     "id": 400,
     "name": "",
     "rotation": 0,
     "type": "",
     "visible": true,
     "x": 672,
     "y": 672,
     "width": 32,
     "height": 32,
     "gid": 713
    },
    {
     "id": 401,
     "name": "",
     "rotation": 0,
     "type": "",
     "visible": true,
     "x": 704,
     "y": 672,
     "width": 32,
     "height": 32,
     "gid": 713
    },
    {
     "id": 402,
     "name": "",
     "rotation": 0,
     "type": "",
     "visible": true,
     "x": 736,
     "y": 672,
     "width": 32,
     "height": 32,
     "gid": 713
    },
    {
     "id": 403,
     "name": "",
     "rotation": 0,
     "type": "",
     "visible": true,
     "x": 768,
     "y": 672,
     "width": 32,
     "height": 32,
     "gid": 714
    },
    {
     "id": 404,
     "name": "",
     "rotation": 0,
     "type": "",
     "visible": true,
     "x": 800,
     "y": 672,
     "width": 32,
     "height": 32,
     "gid": 712
    },
    {
     "id": 405,
     "name": "",
     "rotation": 0,
     "type": "",
     "visible": true,
     "x": 832,
     "y": 672,
     "width": 32,
     "height": 32,
     "gid": 713
    },
    {
     "id": 406,
     "name": "",
     "rotation": 0,
     "type": "",
     "visible": true,
     "x": 864,
     "y": 672,
     "width": 32,
     "height": 32,
     "gid": 713
    },
    {
     "id": 407,
     "name": "",
     "rotation": 0,
     "type": "",
     "visible": true,
     "x": 896,
     "y": 672,
     "width": 32,
     "height": 32,
     "gid": 713
    },
    {
     "id": 408,
     "name": "",
     "rotation": 0,
     "type": "",
     "visible": true,
     "x": 928,
     "y": 672,
     "width": 32,
     "height": 32,
     "gid": 713
    },
    {
     "id": 409,
     "name": "",
     "rotation": 0,
     "type": "",
     "visible": true,
     "x": 960,
     "y": 672,
     "width": 32,
     "height": 32,
     "gid": 714
    },
    {
     "id": 410,
     "name": "",
     "rotation": 0,
     "type": "",
     "visible": true,
     "x": 608,
     "y": 704,
     "width": 32,
     "height": 32,
     "gid": 728
    },
    {
     "id": 411,
     "name": "",
     "rotation": 0,
     "type": "",
     "visible": true,
     "x": 640,
     "y": 704,
     "width": 32,
     "height": 32,
     "gid": 729
    },
    {
     "id": 412,
     "name": "",
     "rotation": 0,
     "type": "",
     "visible": true,
     "x": 672,
     "y": 704,
     "width": 32,
     "height": 32,
     "gid": 729
    },
    {
     "id": 413,
     "name": "",
     "rotation": 0,
     "type": "",
     "visible": true,
     "x": 704,
     "y": 704,
     "width": 32,
     "height": 32,
     "gid": 729
    },
    {
     "id": 414,
     "name": "",
     "rotation": 0,
     "type": "",
     "visible": true,
     "x": 736,
     "y": 704,
     "width": 32,
     "height": 32,
     "gid": 729
    },
    {
     "id": 415,
     "name": "",
     "rotation": 0,
     "type": "",
     "visible": true,
     "x": 768,
     "y": 704,
     "width": 32,
     "height": 32,
     "gid": 730
    },
    {
     "id": 416,
     "name": "",
     "rotation": 0,
     "type": "",
     "visible": true,
     "x": 800,
     "y": 704,
     "width": 32,
     "height": 32,
     "gid": 728
    },
    {
     "id": 417,
     "name": "",
     "rotation": 0,
     "type": "",
     "visible": true,
     "x": 832,
     "y": 704,
     "width": 32,
     "height": 32,
     "gid": 729
    },
    {
     "id": 418,
     "name": "",
     "rotation": 0,
     "type": "",
     "visible": true,
     "x": 864,
     "y": 704,
     "width": 32,
     "height": 32,
     "gid": 729
    },
    {
     "id": 419,
     "name": "",
     "rotation": 0,
     "type": "",
     "visible": true,
     "x": 896,
     "y": 704,
     "width": 32,
     "height": 32,
     "gid": 729
    },
    {
     "id": 420,
     "name": "",
     "rotation": 0,
     "type": "",
     "visible": true,
     "x": 928,
     "y": 704,
     "width": 32,
     "height": 32,
     "gid": 729
    },
    {
     "id": 421,
     "name": "",
     "rotation": 0,
     "type": "",
     "visible": true,
     "x": 960,
     "y": 704,
     "width": 32,
     "height": 32,
     "gid": 730
    },
    {
     "id": 422,
     "name": "",
     "rotation": 0,
     "type": "",
     "visible": true,
     "x": 640,
     "y": 672,
     "width": 32,
     "height": 32,
     "gid": 391
    },
    {
     "id": 423,
     "name": "",
     "rotation": 0,
     "type": "",
     "visible": true,
     "x": 704,
     "y": 672,
     "width": 32,
     "height": 32,
     "gid": 654
    },
    {
     "id": 424,
     "name": "",
     "rotation": 0,
     "type": "",
     "visible": true,
     "x": 736,
     "y": 672,
     "width": 32,
     "height": 32,
     "gid": 655
    },
    {
     "id": 425,
     "name": "",
     "rotation": 0,
     "type": "",
     "visible": true,
     "x": 768,
     "y": 672,
     "width": 32,
     "height": 32,
     "gid": 656
    },
    {
     "id": 426,
     "name": "",
     "rotation": 0,
     "type": "",
     "visible": true,
     "x": 832,
     "y": 672,
     "width": 32,
     "height": 32,
     "gid": 379
    },
    {
     "id": 427,
     "name": "",
     "rotation": 0,
     "type": "",
     "visible": true,
     "x": 864,
     "y": 672,
     "width": 32,
     "height": 32,
     "gid": 651
    },
    {
     "id": 428,
     "name": "",
     "rotation": 0,
     "type": "",
     "visible": true,
     "x": 896,
     "y": 672,
     "width": 32,
     "height": 32,
     "gid": 652
    },
    {
     "id": 429,
     "name": "",
     "rotation": 0,
     "type": "",
     "visible": true,
     "x": 928,
     "y": 672,
     "width": 32,
     "height": 32,
     "gid": 653
    },
    {
     "id": 430,
     "name": "",
     "rotation": 0,
     "type": "",
     "visible": true,
     "x": 640,
     "y": 704,
     "width": 32,
     "height": 32,
     "gid": 407
    },
    {
     "id": 431,
     "name": "",
     "rotation": 0,
     "type": "",
     "visible": true,
     "x": 704,
     "y": 704,
     "width": 32,
     "height": 32,
     "gid": 670
    },
    {
     "id": 432,
     "name": "",
     "rotation": 0,
     "type": "",
     "visible": true,
     "x": 736,
     "y": 704,
     "width": 32,
     "height": 32,
     "gid": 671
    },
    {
     "id": 433,
     "name": "",
     "rotation": 0,
     "type": "",
     "visible": true,
     "x": 768,
     "y": 704,
     "width": 32,
     "height": 32,
     "gid": 672
    },
    {
     "id": 434,
     "name": "",
     "rotation": 0,
     "type": "",
     "visible": true,
     "x": 864,
     "y": 704,
     "width": 32,
     "height": 32,
     "gid": 667
    },
    {
     "id": 435,
     "name": "",
     "rotation": 0,
     "type": "",
     "visible": true,
     "x": 896,
     "y": 704,
     "width": 32,
     "height": 32,
     "gid": 668
    },
    {
     "id": 436,
     "name": "",
     "rotation": 0,
     "type": "",
     "visible": true,
     "x": 928,
     "y": 704,
     "width": 32,
     "height": 32,
     "gid": 669
    },
    {
     "id": 437,
     "name": "",
     "rotation": 0,
     "type": "",
     "visible": true,
     "x": 576,
     "y": 640,
     "width": 32,
     "height": 32,
     "gid": 641
    },
    {
     "id": 438,
     "name": "",
     "rotation": 0,
     "type": "",
     "visible": true,
     "x": 640,
     "y": 640,
     "width": 32,
     "height": 32,
     "gid": 366
    },
    {
     "id": 439,
     "name": "",
     "rotation": 0,
     "type": "",
     "visible": true,
     "x": 672,
     "y": 640,
     "width": 32,
     "height": 32,
     "gid": 367
    },
    {
     "id": 440,
     "name": "",
     "rotation": 0,
     "type": "",
     "visible": true,
     "x": 704,
     "y": 640,
     "width": 32,
     "height": 32,
     "gid": 368
    },
    {
     "id": 441,
     "name": "",
     "rotation": 0,
     "type": "",
     "visible": true,
     "x": 768,
     "y": 640,
     "width": 32,
     "height": 32,
     "gid": 641
    },
    {
     "id": 442,
     "name": "",
     "rotation": 0,
     "type": "",
     "visible": true,
     "x": 832,
     "y": 640,
     "width": 32,
     "height": 32,
     "gid": 391
    },
    {
     "id": 443,
     "name": "",
     "rotation": 0,
     "type": "",
     "visible": true,
     "x": 864,
     "y": 640,
     "width": 32,
     "height": 32,
     "gid": 348
    },
    {
     "id": 444,
     "name": "",
     "rotation": 0,
     "type": "",
     "visible": true,
     "x": 928,
     "y": 640,
     "width": 32,
     "height": 32,
     "gid": 400
    },
    {
     "id": 445,
     "name": "",
     "rotation": 0,
     "type": "",
     "visible": true,
     "x": 960,
     "y": 640,
     "width": 32,
     "height": 32,
     "gid": 641
    },
    {
     "id": 452,
     "name": "",
     "rotation": 0,
     "type": "",
     "visible": true,
     "x": 1056,
     "y": 800,
     "width": 32,
     "height": 32,
     "gid": 680
    },
    {
     "id": 453,
     "name": "",
     "rotation": 0,
     "type": "",
     "visible": true,
     "x": 1088,
     "y": 800,
     "width": 32,
     "height": 32,
     "gid": 681
    },
    {
     "id": 454,
     "name": "",
     "rotation": 0,
     "type": "",
     "visible": true,
     "x": 1120,
     "y": 800,
     "width": 32,
     "height": 32,
     "gid": 681
    },
    {
     "id": 455,
     "name": "",
     "rotation": 0,
     "type": "",
     "visible": true,
     "x": 1152,
     "y": 800,
     "width": 32,
     "height": 32,
     "gid": 681
    },
    {
     "id": 456,
     "name": "",
     "rotation": 0,
     "type": "",
     "visible": true,
     "x": 1184,
     "y": 800,
     "width": 32,
     "height": 32,
     "gid": 681
    },
    {
     "id": 457,
     "name": "",
     "rotation": 0,
     "type": "",
     "visible": true,
     "x": 1216,
     "y": 800,
     "width": 32,
     "height": 32,
     "gid": 682
    },
    {
     "id": 458,
     "name": "",
     "rotation": 0,
     "type": "",
     "visible": true,
     "x": 1248,
     "y": 800,
     "width": 32,
     "height": 32,
     "gid": 680
    },
    {
     "id": 459,
     "name": "",
     "rotation": 0,
     "type": "",
     "visible": true,
     "x": 1280,
     "y": 800,
     "width": 32,
     "height": 32,
     "gid": 681
    },
    {
     "id": 460,
     "name": "",
     "rotation": 0,
     "type": "",
     "visible": true,
     "x": 1312,
     "y": 800,
     "width": 32,
     "height": 32,
     "gid": 681
    },
    {
     "id": 461,
     "name": "",
     "rotation": 0,
     "type": "",
     "visible": true,
     "x": 1344,
     "y": 800,
     "width": 32,
     "height": 32,
     "gid": 681
    },
    {
     "id": 462,
     "name": "",
     "rotation": 0,
     "type": "",
     "visible": true,
     "x": 1376,
     "y": 800,
     "width": 32,
     "height": 32,
     "gid": 681
    },
    {
     "id": 463,
     "name": "",
     "rotation": 0,
     "type": "",
     "visible": true,
     "x": 1408,
     "y": 800,
     "width": 32,
     "height": 32,
     "gid": 682
    },
    {
     "id": 464,
     "name": "",
     "rotation": 0,
     "type": "",
     "visible": true,
     "x": 1184,
     "y": 800,
     "width": 32,
     "height": 32,
     "gid": 451
    },
    {
     "id": 465,
     "name": "",
     "rotation": 0,
     "type": "",
     "visible": true,
     "x": 1344,
     "y": 800,
     "width": 32,
     "height": 32,
     "gid": 451
    },
    {
     "id": 466,
     "name": "",
     "rotation": 0,
     "type": "",
     "visible": true,
     "x": 1056,
     "y": 800,
     "width": 32,
     "height": 32,
     "gid": 642
    },
    {
     "id": 467,
     "name": "",
     "rotation": 0,
     "type": "",
     "visible": true,
     "x": 1248,
     "y": 800,
     "width": 32,
     "height": 32,
     "gid": 645
    },
    {
     "id": 468,
     "name": "",
     "rotation": 0,
     "type": "",
     "visible": true,
     "x": 1024,
     "y": 832,
     "width": 32,
     "height": 32,
     "gid": 657
    },
    {
     "id": 469,
     "name": "",
     "rotation": 0,
     "type": "",
     "visible": true,
     "x": 1056,
     "y": 832,
     "width": 32,
     "height": 32,
     "gid": 658
    },
    {
     "id": 470,
     "name": "",
     "rotation": 0,
     "type": "",
     "visible": true,
     "x": 1088,
     "y": 832,
     "width": 32,
     "height": 32,
     "gid": 659
    },
    {
     "id": 471,
     "name": "",
     "rotation": 0,
     "type": "",
     "visible": true,
     "x": 1120,
     "y": 832,
     "width": 32,
     "height": 32,
     "gid": 659
    },
    {
     "id": 472,
     "name": "",
     "rotation": 0,
     "type": "",
     "visible": true,
     "x": 1152,
     "y": 832,
     "width": 32,
     "height": 32,
     "gid": 659
    },
    {
     "id": 473,
     "name": "",
     "rotation": 0,
     "type": "",
     "visible": true,
     "x": 1184,
     "y": 832,
     "width": 32,
     "height": 32,
     "gid": 659
    },
    {
     "id": 474,
     "name": "",
     "rotation": 0,
     "type": "",
     "visible": true,
     "x": 1216,
     "y": 832,
     "width": 32,
     "height": 32,
     "gid": 660
    },
    {
     "id": 475,
     "name": "",
     "rotation": 0,
     "type": "",
     "visible": true,
     "x": 1248,
     "y": 832,
     "width": 32,
     "height": 32,
     "gid": 661
    },
    {
     "id": 476,
     "name": "",
     "rotation": 0,
     "type": "",
     "visible": true,
     "x": 1280,
     "y": 832,
     "width": 32,
     "height": 32,
     "gid": 662
    },
    {
     "id": 477,
     "name": "",
     "rotation": 0,
     "type": "",
     "visible": true,
     "x": 1312,
     "y": 832,
     "width": 32,
     "height": 32,
     "gid": 662
    },
    {
     "id": 478,
     "name": "",
     "rotation": 0,
     "type": "",
     "visible": true,
     "x": 1344,
     "y": 832,
     "width": 32,
     "height": 32,
     "gid": 662
    },
    {
     "id": 479,
     "name": "",
     "rotation": 0,
     "type": "",
     "visible": true,
     "x": 1376,
     "y": 832,
     "width": 32,
     "height": 32,
     "gid": 662
    },
    {
     "id": 480,
     "name": "",
     "rotation": 0,
     "type": "",
     "visible": true,
     "x": 1408,
     "y": 832,
     "width": 32,
     "height": 32,
     "gid": 663
    },
    {
     "id": 481,
     "name": "",
     "rotation": 0,
     "type": "",
     "visible": true,
     "x": 1024,
     "y": 864,
     "width": 32,
     "height": 32,
     "gid": 673
    },
    {
     "id": 482,
     "name": "",
     "rotation": 0,
     "type": "",
     "visible": true,
     "x": 1056,
     "y": 864,
     "width": 32,
     "height": 32,
     "gid": 674
    },
    {
     "id": 483,
     "name": "",
     "rotation": 0,
     "type": "",
     "visible": true,
     "x": 1088,
     "y": 864,
     "width": 32,
     "height": 32,
     "gid": 675
    },
    {
     "id": 484,
     "name": "",
     "rotation": 0,
     "type": "",
     "visible": true,
     "x": 1120,
     "y": 864,
     "width": 32,
     "height": 32,
     "gid": 675
    },
    {
     "id": 485,
     "name": "",
     "rotation": 0,
     "type": "",
     "visible": true,
     "x": 1152,
     "y": 864,
     "width": 32,
     "height": 32,
     "gid": 675
    },
    {
     "id": 486,
     "name": "",
     "rotation": 0,
     "type": "",
     "visible": true,
     "x": 1184,
     "y": 864,
     "width": 32,
     "height": 32,
     "gid": 675
    },
    {
     "id": 487,
     "name": "",
     "rotation": 0,
     "type": "",
     "visible": true,
     "x": 1216,
     "y": 864,
     "width": 32,
     "height": 32,
     "gid": 676
    },
    {
     "id": 488,
     "name": "",
     "rotation": 0,
     "type": "",
     "visible": true,
     "x": 1248,
     "y": 864,
     "width": 32,
     "height": 32,
     "gid": 677
    },
    {
     "id": 489,
     "name": "",
     "rotation": 0,
     "type": "",
     "visible": true,
     "x": 1280,
     "y": 864,
     "width": 32,
     "height": 32,
     "gid": 678
    },
    {
     "id": 490,
     "name": "",
     "rotation": 0,
     "type": "",
     "visible": true,
     "x": 1312,
     "y": 864,
     "width": 32,
     "height": 32,
     "gid": 678
    },
    {
     "id": 491,
     "name": "",
     "rotation": 0,
     "type": "",
     "visible": true,
     "x": 1344,
     "y": 864,
     "width": 32,
     "height": 32,
     "gid": 678
    },
    {
     "id": 492,
     "name": "",
     "rotation": 0,
     "type": "",
     "visible": true,
     "x": 1376,
     "y": 864,
     "width": 32,
     "height": 32,
     "gid": 678
    },
    {
     "id": 493,
     "name": "",
     "rotation": 0,
     "type": "",
     "visible": true,
     "x": 1408,
     "y": 864,
     "width": 32,
     "height": 32,
     "gid": 679
    },
    {
     "id": 494,
     "name": "",
     "rotation": 0,
     "type": "",
     "visible": true,
     "x": 1056,
     "y": 832,
     "width": 32,
     "height": 32,
     "gid": 712
    },
    {
     "id": 495,
     "name": "",
     "rotation": 0,
     "type": "",
     "visible": true,
     "x": 1088,
     "y": 832,
     "width": 32,
     "height": 32,
     "gid": 713
    },
    {
     "id": 496,
     "name": "",
     "rotation": 0,
     "type": "",
     "visible": true,
     "x": 1120,
     "y": 832,
     "width": 32,
     "height": 32,
     "gid": 713
    },
    {
     "id": 497,
     "name": "",
     "rotation": 0,
     "type": "",
     "visible": true,
     "x": 1152,
     "y": 832,
     "width": 32,
     "height": 32,
     "gid": 713
    },
    {
     "id": 498,
     "name": "",
     "rotation": 0,
     "type": "",
     "visible": true,
     "x": 1184,
     "y": 832,
     "width": 32,
     "height": 32,
     "gid": 713
    },
    {
     "id": 499,
     "name": "",
     "rotation": 0,
     "type": "",
     "visible": true,
     "x": 1216,
     "y": 832,
     "width": 32,
     "height": 32,
     "gid": 714
    },
    {
     "id": 500,
     "name": "",
     "rotation": 0,
     "type": "",
     "visible": true,
     "x": 1248,
     "y": 832,
     "width": 32,
     "height": 32,
     "gid": 712
    },
    {
     "id": 501,
     "name": "",
     "rotation": 0,
     "type": "",
     "visible": true,
     "x": 1280,
     "y": 832,
     "width": 32,
     "height": 32,
     "gid": 713
    },
    {
     "id": 502,
     "name": "",
     "rotation": 0,
     "type": "",
     "visible": true,
     "x": 1312,
     "y": 832,
     "width": 32,
     "height": 32,
     "gid": 713
    },
    {
     "id": 503,
     "name": "",
     "rotation": 0,
     "type": "",
     "visible": true,
     "x": 1344,
     "y": 832,
     "width": 32,
     "height": 32,
     "gid": 713
    },
    {
     "id": 504,
     "name": "",
     "rotation": 0,
     "type": "",
     "visible": true,
     "x": 1376,
     "y": 832,
     "width": 32,
     "height": 32,
     "gid": 713
    },
    {
     "id": 505,
     "name": "",
     "rotation": 0,
     "type": "",
     "visible": true,
     "x": 1408,
     "y": 832,
     "width": 32,
     "height": 32,
     "gid": 714
    },
    {
     "id": 506,
     "name": "",
     "rotation": 0,
     "type": "",
     "visible": true,
     "x": 1056,
     "y": 864,
     "width": 32,
     "height": 32,
     "gid": 728
    },
    {
     "id": 507,
     "name": "",
     "rotation": 0,
     "type": "",
     "visible": true,
     "x": 1088,
     "y": 864,
     "width": 32,
     "height": 32,
     "gid": 729
    },
    {
     "id": 508,
     "name": "",
     "rotation": 0,
     "type": "",
     "visible": true,
     "x": 1120,
     "y": 864,
     "width": 32,
     "height": 32,
     "gid": 729
    },
    {
     "id": 509,
     "name": "",
     "rotation": 0,
     "type": "",
     "visible": true,
     "x": 1152,
     "y": 864,
     "width": 32,
     "height": 32,
     "gid": 729
    },
    {
     "id": 510,
     "name": "",
     "rotation": 0,
     "type": "",
     "visible": true,
     "x": 1184,
     "y": 864,
     "width": 32,
     "height": 32,
     "gid": 729
    },
    {
     "id": 511,
     "name": "",
     "rotation": 0,
     "type": "",
     "visible": true,
     "x": 1216,
     "y": 864,
     "width": 32,
     "height": 32,
     "gid": 730
    },
    {
     "id": 512,
     "name": "",
     "rotation": 0,
     "type": "",
     "visible": true,
     "x": 1248,
     "y": 864,
     "width": 32,
     "height": 32,
     "gid": 728
    },
    {
     "id": 513,
     "name": "",
     "rotation": 0,
     "type": "",
     "visible": true,
     "x": 1280,
     "y": 864,
     "width": 32,
     "height": 32,
     "gid": 729
    },
    {
     "id": 514,
     "name": "",
     "rotation": 0,
     "type": "",
     "visible": true,
     "x": 1312,
     "y": 864,
     "width": 32,
     "height": 32,
     "gid": 729
    },
    {
     "id": 515,
     "name": "",
     "rotation": 0,
     "type": "",
     "visible": true,
     "x": 1344,
     "y": 864,
     "width": 32,
     "height": 32,
     "gid": 729
    },
    {
     "id": 516,
     "name": "",
     "rotation": 0,
     "type": "",
     "visible": true,
     "x": 1376,
     "y": 864,
     "width": 32,
     "height": 32,
     "gid": 729
    },
    {
     "id": 517,
     "name": "",
     "rotation": 0,
     "type": "",
     "visible": true,
     "x": 1408,
     "y": 864,
     "width": 32,
     "height": 32,
     "gid": 730
    },
    {
     "id": 518,
     "name": "",
     "rotation": 0,
     "type": "",
     "visible": true,
     "x": 1088,
     "y": 832,
     "width": 32,
     "height": 32,
     "gid": 391
    },
    {
     "id": 519,
     "name": "",
     "rotation": 0,
     "type": "",
     "visible": true,
     "x": 1152,
     "y": 832,
     "width": 32,
     "height": 32,
     "gid": 654
    },
    {
     "id": 520,
     "name": "",
     "rotation": 0,
     "type": "",
     "visible": true,
     "x": 1184,
     "y": 832,
     "width": 32,
     "height": 32,
     "gid": 655
    },
    {
     "id": 521,
     "name": "",
     "rotation": 0,
     "type": "",
     "visible": true,
     "x": 1216,
     "y": 832,
     "width": 32,
     "height": 32,
     "gid": 656
    },
    {
     "id": 522,
     "name": "",
     "rotation": 0,
     "type": "",
     "visible": true,
     "x": 1280,
     "y": 832,
     "width": 32,
     "height": 32,
     "gid": 379
    },
    {
     "id": 523,
     "name": "",
     "rotation": 0,
     "type": "",
     "visible": true,
     "x": 1312,
     "y": 832,
     "width": 32,
     "height": 32,
     "gid": 651
    },
    {
     "id": 524,
     "name": "",
     "rotation": 0,
     "type": "",
     "visible": true,
     "x": 1344,
     "y": 832,
     "width": 32,
     "height": 32,
     "gid": 652
    },
    {
     "id": 525,
     "name": "",
     "rotation": 0,
     "type": "",
     "visible": true,
     "x": 1376,
     "y": 832,
     "width": 32,
     "height": 32,
     "gid": 653
    },
    {
     "id": 526,
     "name": "",
     "rotation": 0,
     "type": "",
     "visible": true,
     "x": 1088,
     "y": 864,
     "width": 32,
     "height": 32,
     "gid": 407
    },
    {
     "id": 527,
     "name": "",
     "rotation": 0,
     "type": "",
     "visible": true,
     "x": 1152,
     "y": 864,
     "width": 32,
     "height": 32,
     "gid": 670
    },
    {
     "id": 528,
     "name": "",
     "rotation": 0,
     "type": "",
     "visible": true,
     "x": 1184,
     "y": 864,
     "width": 32,
     "height": 32,
     "gid": 671
    },
    {
     "id": 529,
     "name": "",
     "rotation": 0,
     "type": "",
     "visible": true,
     "x": 1216,
     "y": 864,
     "width": 32,
     "height": 32,
     "gid": 672
    },
    {
     "id": 530,
     "name": "",
     "rotation": 0,
     "type": "",
     "visible": true,
     "x": 1312,
     "y": 864,
     "width": 32,
     "height": 32,
     "gid": 667
    },
    {
     "id": 531,
     "name": "",
     "rotation": 0,
     "type": "",
     "visible": true,
     "x": 1344,
     "y": 864,
     "width": 32,
     "height": 32,
     "gid": 668
    },
    {
     "id": 532,
     "name": "",
     "rotation": 0,
     "type": "",
     "visible": true,
     "x": 1376,
     "y": 864,
     "width": 32,
     "height": 32,
     "gid": 669
    },
    {
     "id": 533,
     "name": "",
     "rotation": 0,
     "type": "",
     "visible": true,
     "x": 1024,
     "y": 800,
     "width": 32,
     "height": 32,
     "gid": 641
    },
    {
     "id": 534,
     "name": "",
     "rotation": 0,
     "type": "",
     "visible": true,
     "x": 1088,
     "y": 800,
     "width": 32,
     "height": 32,
     "gid": 366
    },
    {
     "id": 535,
     "name": "",
     "rotation": 0,
     "type": "",
     "visible": true,
     "x": 1120,
     "y": 800,
     "width": 32,
     "height": 32,
     "gid": 367
    },
    {
     "id": 536,
     "name": "",
     "rotation": 0,
     "type": "",
     "visible": true,
     "x": 1152,
     "y": 800,
     "width": 32,
     "height": 32,
     "gid": 368
    },
    {
     "id": 537,
     "name": "",
     "rotation": 0,
     "type": "",
     "visible": true,
     "x": 1216,
     "y": 800,
     "width": 32,
     "height": 32,
     "gid": 641
    },
    {
     "id": 538,
     "name": "",
     "rotation": 0,
     "type": "",
     "visible": true,
     "x": 1280,
     "y": 800,
     "width": 32,
     "height": 32,
     "gid": 391
    },
    {
     "id": 539,
     "name": "",
     "rotation": 0,
     "type": "",
     "visible": true,
     "x": 1312,
     "y": 800,
     "width": 32,
     "height": 32,
     "gid": 348
    },
    {
     "id": 540,
     "name": "",
     "rotation": 0,
     "type": "",
     "visible": true,
     "x": 1376,
     "y": 800,
     "width": 32,
     "height": 32,
     "gid": 400
    },
    {
     "id": 541,
     "name": "",
     "rotation": 0,
     "type": "",
     "visible": true,
     "x": 1408,
     "y": 800,
     "width": 32,
     "height": 32,
     "gid": 641
    },
    {
     "id": 548,
     "name": "",
     "rotation": 0,
     "type": "",
     "visible": true,
     "x": 512,
     "y": 960,
     "width": 32,
     "height": 32,
     "gid": 290
    },
    {
     "id": 549,
     "name": "",
     "rotation": 0,
     "type": "",
     "visible": true,
     "x": 544,
     "y": 960,
     "width": 32,
     "height": 32,
     "gid": 291
    },
    {
     "id": 550,
     "name": "",
     "rotation": 0,
     "type": "",
     "visible": true,
     "x": 576,
     "y": 960,
     "width": 32,
     "height": 32,
     "gid": 291
    },
    {
     "id": 551,
     "name": "",
     "rotation": 0,
     "type": "",
     "visible": true,
     "x": 608,
     "y": 960,
     "width": 32,
     "height": 32,
     "gid": 713
    },
    {
     "id": 552,
     "name": "",
     "rotation": 0,
     "type": "",
     "visible": true,
     "x": 640,
     "y": 960,
     "width": 32,
     "height": 32,
     "gid": 714
    },
    {
     "id": 553,
     "name": "",
     "rotation": 0,
     "type": "",
     "visible": true,
     "x": 512,
     "y": 992,
     "width": 32,
     "height": 32,
     "gid": 322
    },
    {
     "id": 554,
     "name": "",
     "rotation": 0,
     "type": "",
     "visible": true,
     "x": 544,
     "y": 992,
     "width": 32,
     "height": 32,
     "gid": 323
    },
    {
     "id": 555,
     "name": "",
     "rotation": 0,
     "type": "",
     "visible": true,
     "x": 576,
     "y": 992,
     "width": 32,
     "height": 32,
     "gid": 729
    },
    {
     "id": 556,
     "name": "",
     "rotation": 0,
     "type": "",
     "visible": true,
     "x": 608,
     "y": 992,
     "width": 32,
     "height": 32,
     "gid": 729
    },
    {
     "id": 557,
     "name": "",
     "rotation": 0,
     "type": "",
     "visible": true,
     "x": 640,
     "y": 992,
     "width": 32,
     "height": 32,
     "gid": 730
    },
    {
     "id": 558,
     "name": "",
     "rotation": 0,
     "type": "",
     "visible": true,
     "x": 544,
     "y": 992,
     "width": 32,
     "height": 32,
     "gid": 407
    },
    {
     "id": 559,
     "name": "",
     "rotation": 0,
     "type": "",
     "visible": true,
     "x": 608,
     "y": 992,
     "width": 32,
     "height": 32,
     "gid": 635
    },
    {
     "id": 560,
     "name": "",
     "rotation": 0,
     "type": "",
     "visible": true,
     "x": 544,
     "y": 960,
     "width": 32,
     "height": 32,
     "gid": 391
    },
    {
     "id": 561,
     "name": "",
     "rotation": 0,
     "type": "",
     "visible": true,
     "x": 608,
     "y": 960,
     "width": 32,
     "height": 32,
     "gid": 619
    },
    {
     "id": 563,
     "name": "",
     "rotation": 0,
     "type": "",
     "visible": true,
     "x": 768,
     "y": 992,
     "width": 32,
     "height": 32,
     "gid": 455
    },
    {
     "id": 564,
     "name": "",
     "rotation": 0,
     "type": "",
     "visible": true,
     "x": 768,
     "y": 928,
     "width": 32,
     "height": 32,
     "gid": 423
    },
    {
     "id": 565,
     "name": "",
     "rotation": 0,
     "type": "",
     "visible": true,
     "x": 768,
     "y": 960,
     "width": 32,
     "height": 32,
     "gid": 439
    },
    {
     "id": 567,
     "name": "",
     "rotation": 0,
     "type": "",
     "visible": true,
     "x": 1280,
     "y": 992,
     "width": 32,
     "height": 32,
     "gid": 375
    },
    {
     "id": 568,
     "name": "",
     "rotation": 0,
     "type": "",
     "visible": true,
     "x": 1280,
     "y": 928,
     "width": 32,
     "height": 32,
     "gid": 343
    },
    {
     "id": 569,
     "name": "",
     "rotation": 0,
     "type": "",
     "visible": true,
     "x": 1280,
     "y": 960,
     "width": 32,
     "height": 32,
     "gid": 359
    },
    {
     "id": 571,
     "name": "",
     "rotation": 0,
     "type": "",
     "visible": true,
     "x": 1440,
     "y": 544,
     "width": 32,
     "height": 32,
     "gid": 589
    },
    {
     "id": 572,
     "name": "",
     "rotation": 0,
     "type": "",
     "visible": true,
     "x": 1472,
     "y": 544,
     "width": 32,
     "height": 32,
     "gid": 590
    },
    {
     "id": 573,
     "name": "",
     "rotation": 0,
     "type": "",
     "visible": true,
     "x": 1440,
     "y": 576,
     "width": 32,
     "height": 32,
     "gid": 605
    },
    {
     "id": 574,
     "name": "",
     "rotation": 0,
     "type": "",
     "visible": true,
     "x": 1472,
     "y": 576,
     "width": 32,
     "height": 32,
     "gid": 606
    },
    {
     "id": 575,
     "name": "",
     "rotation": 0,
     "type": "",
     "visible": true,
     "x": 1440,
     "y": 608,
     "width": 32,
     "height": 32,
     "gid": 621
    },
    {
     "id": 576,
     "name": "",
     "rotation": 0,
     "type": "",
     "visible": true,
     "x": 1472,
     "y": 608,
     "width": 32,
     "height": 32,
     "gid": 622
    },
    {
     "id": 577,
     "name": "",
     "rotation": 0,
     "type": "",
     "visible": true,
     "x": 1472,
     "y": 576,
     "width": 32,
     "height": 32,
     "gid": 379
    },
    {
     "id": 579,
     "name": "",
     "rotation": 0,
     "type": "",
     "visible": true,
     "x": 1472,
     "y": 416,
     "width": 32,
     "height": 32,
     "gid": 455
    },
    {
     "id": 580,
     "name": "",
     "rotation": 0,
     "type": "",
     "visible": true,
     "x": 1472,
     "y": 352,
     "width": 32,
     "height": 32,
     "gid": 423
    },
    {
     "id": 581,
     "name": "",
     "rotation": 0,
     "type": "",
     "visible": true,
     "x": 1472,
     "y": 384,
     "width": 32,
     "height": 32,
     "gid": 439
    },
    {
     "id": 584,
     "name": "",
     "rotation": 0,
     "type": "",
     "visible": true,
     "x": 1056,
     "y": 32,
     "width": 32,
     "height": 32,
     "gid": 595
    },
    {
     "id": 585,
     "name": "",
     "rotation": 0,
     "type": "",
     "visible": true,
     "x": 1088,
     "y": 32,
     "width": 32,
     "height": 32,
     "gid": 596
    },
    {
     "id": 586,
     "name": "",
     "rotation": 0,
     "type": "",
     "visible": true,
     "x": 1120,
     "y": 32,
     "width": 32,
     "height": 32,
     "gid": 593
    },
    {
     "id": 587,
     "name": "",
     "rotation": 0,
     "type": "",
     "visible": true,
     "x": 1152,
     "y": 32,
     "width": 32,
     "height": 32,
     "gid": 594
    },
    {
     "id": 588,
     "name": "",
     "rotation": 0,
     "type": "",
     "visible": true,
     "x": 1056,
     "y": 64,
     "width": 32,
     "height": 32,
     "gid": 611
    },
    {
     "id": 589,
     "name": "",
     "rotation": 0,
     "type": "",
     "visible": true,
     "x": 1088,
     "y": 64,
     "width": 32,
     "height": 32,
     "gid": 612
    },
    {
     "id": 590,
     "name": "",
     "rotation": 0,
     "type": "",
     "visible": true,
     "x": 1120,
     "y": 64,
     "width": 32,
     "height": 32,
     "gid": 609
    },
    {
     "id": 591,
     "name": "",
     "rotation": 0,
     "type": "",
     "visible": true,
     "x": 1152,
     "y": 64,
     "width": 32,
     "height": 32,
     "gid": 610
    },
    {
     "id": 592,
     "name": "",
     "rotation": 0,
     "type": "",
     "visible": true,
     "x": 1056,
     "y": 96,
     "width": 32,
     "height": 32,
     "gid": 627
    },
    {
     "id": 593,
     "name": "",
     "rotation": 0,
     "type": "",
     "visible": true,
     "x": 1088,
     "y": 96,
     "width": 32,
     "height": 32,
     "gid": 628
    },
    {
     "id": 594,
     "name": "",
     "rotation": 0,
     "type": "",
     "visible": true,
     "x": 1120,
     "y": 96,
     "width": 32,
     "height": 32,
     "gid": 625
    },
    {
     "id": 595,
     "name": "",
     "rotation": 0,
     "type": "",
     "visible": true,
     "x": 1152,
     "y": 96,
     "width": 32,
     "height": 32,
     "gid": 626
    },
    {
     "id": 597,
     "name": "",
     "rotation": 0,
     "type": "",
     "visible": true,
     "x": 1184,
     "y": 32,
     "width": 32,
     "height": 32,
     "gid": 845
    },
    {
     "id": 598,
     "name": "",
     "rotation": 0,
     "type": "",
     "visible": true,
     "x": 1216,
     "y": 32,
     "width": 32,
     "height": 32,
     "gid": 846
    },
    {
     "id": 599,
     "name": "",
     "rotation": 0,
     "type": "",
     "visible": true,
     "x": 1184,
     "y": 64,
     "width": 32,
     "height": 32,
     "gid": 861
    },
    {
     "id": 600,
     "name": "",
     "rotation": 0,
     "type": "",
     "visible": true,
     "x": 1216,
     "y": 64,
     "width": 32,
     "height": 32,
     "gid": 862
    },
    {
     "id": 601,
     "name": "",
     "rotation": 0,
     "type": "",
     "visible": true,
     "x": 1184,
     "y": 96,
     "width": 32,
     "height": 32,
     "gid": 877
    },
    {
     "id": 602,
     "name": "",
     "rotation": 0,
     "type": "",
     "visible": true,
     "x": 1216,
     "y": 96,
     "width": 32,
     "height": 32,
     "gid": 878
    },
    {
     "id": 604,
     "name": "",
     "rotation": 0,
     "type": "",
     "visible": true,
     "x": 1280,
     "y": 32,
     "width": 32,
     "height": 32,
     "gid": 424
    },
    {
     "id": 605,
     "name": "",
     "rotation": 0,
     "type": "",
     "visible": true,
     "x": 1312,
     "y": 32,
     "width": 32,
     "height": 32,
     "gid": 425
    },
    {
     "id": 606,
     "name": "",
     "rotation": 0,
     "type": "",
     "visible": true,
     "x": 1344,
     "y": 32,
     "width": 32,
     "height": 32,
     "gid": 477
    },
    {
     "id": 607,
     "name": "",
     "rotation": 0,
     "type": "",
     "visible": true,
     "x": 1280,
     "y": 64,
     "width": 32,
     "height": 32,
     "gid": 440
    },
    {
     "id": 608,
     "name": "",
     "rotation": 0,
     "type": "",
     "visible": true,
     "x": 1312,
     "y": 64,
     "width": 32,
     "height": 32,
     "gid": 441
    },
    {
     "id": 609,
     "name": "",
     "rotation": 0,
     "type": "",
     "visible": true,
     "x": 1344,
     "y": 64,
     "width": 32,
     "height": 32,
     "gid": 493
    },
    {
     "id": 610,
     "name": "",
     "rotation": 0,
     "type": "",
     "visible": true,
     "x": 1280,
     "y": 96,
     "width": 32,
     "height": 32,
     "gid": 456
    },
    {
     "id": 611,
     "name": "",
     "rotation": 0,
     "type": "",
     "visible": true,
     "x": 1312,
     "y": 96,
     "width": 32,
     "height": 32,
     "gid": 457
    },
    {
     "id": 612,
     "name": "",
     "rotation": 0,
     "type": "",
     "visible": true,
     "x": 1344,
     "y": 96,
     "width": 32,
     "height": 32,
     "gid": 509
    },
    {
     "id": 614,
     "name": "",
     "rotation": 0,
     "type": "",
     "visible": true,
     "x": 1408,
     "y": 32,
     "width": 32,
     "height": 32,
     "gid": 417
    },
    {
     "id": 615,
     "name": "",
     "rotation": 0,
     "type": "",
     "visible": true,
     "x": 1440,
     "y": 32,
     "width": 32,
     "height": 32,
     "gid": 418
    },
    {
     "id": 616,
     "name": "",
     "rotation": 0,
     "type": "",
     "visible": true,
     "x": 1408,
     "y": 64,
     "width": 32,
     "height": 32,
     "gid": 433
    },
    {
     "id": 617,
     "name": "",
     "rotation": 0,
     "type": "",
     "visible": true,
     "x": 1440,
     "y": 64,
     "width": 32,
     "height": 32,
     "gid": 434
    },
    {
     "id": 619,
     "name": "",
     "rotation": 0,
     "type": "",
     "visible": true,
     "x": 1088,
     "y": 128,
     "width": 32,
     "height": 32,
     "gid": 547
    },
    {
     "id": 620,
     "name": "",
     "rotation": 0,
     "type": "",
     "visible": true,
     "x": 1120,
     "y": 128,
     "width": 32,
     "height": 32,
     "gid": 548
    },
    {
     "id": 621,
     "name": "",
     "rotation": 0,
     "type": "",
     "visible": true,
     "x": 1152,
     "y": 128,
     "width": 32,
     "height": 32,
     "gid": 549
    },
    {
     "id": 622,
     "name": "",
     "rotation": 0,
     "type": "",
     "visible": true,
     "x": 1088,
     "y": 160,
     "width": 32,
     "height": 32,
     "gid": 563
    },
    {
     "id": 623,
     "name": "",
     "rotation": 0,
     "type": "",
     "visible": true,
     "x": 1120,
     "y": 160,
     "width": 32,
     "height": 32,
     "gid": 564
    },
    {
     "id": 624,
     "name": "",
     "rotation": 0,
     "type": "",
     "visible": true,
     "x": 1152,
     "y": 160,
     "width": 32,
     "height": 32,
     "gid": 565
    },
    {
     "id": 625,
     "name": "",
     "rotation": 0,
     "type": "",
     "visible": true,
     "x": 1088,
     "y": 192,
     "width": 32,
     "height": 32,
     "gid": 579
    },
    {
     "id": 626,
     "name": "",
     "rotation": 0,
     "type": "",
     "visible": true,
     "x": 1120,
     "y": 192,
     "width": 32,
     "height": 32,
     "gid": 580
    },
    {
     "id": 627,
     "name": "",
     "rotation": 0,
     "type": "",
     "visible": true,
     "x": 1152,
     "y": 192,
     "width": 32,
     "height": 32,
     "gid": 581
    },
    {
     "id": 629,
     "name": "",
     "rotation": 0,
     "type": "",
     "visible": true,
     "x": 1440,
     "y": 192,
     "width": 32,
     "height": 32,
     "gid": 455
    },
    {
     "id": 630,
     "name": "",
     "rotation": 0,
     "type": "",
     "visible": true,
     "x": 1440,
     "y": 128,
     "width": 32,
     "height": 32,
     "gid": 423
    },
    {
     "id": 631,
     "name": "",
     "rotation": 0,
     "type": "",
     "visible": true,
     "x": 1440,
     "y": 160,
     "width": 32,
     "height": 32,
     "gid": 439
    }
   ],
   "opacity": 1,
   "type": "objectgroup",
   "visible": true,
   "x": 0,
   "y": 0
  },
  {
   "draworder": "topdown",
   "id": 4,
   "name": "Chair",
   "objects": [
    {
     "id": 62,
     "name": "",
     "rotation": 0,
     "type": "",
     "visible": true,
     "x": 128,
     "y": 256,
     "width": 32,
     "height": 64,
     "gid": 1080,
     "properties": [
      {
       "name": "direction",
       "type": "string",
       "value": "down"
      }
     ]
    },
    {
     "id": 63,
     "name": "",
     "rotation": 0,
     "type": "",
     "visible": true,
     "x": 128,
     "y": 352,
     "width": 32,
     "height": 64,
     "gid": 1084,
     "properties": [
      {
       "name": "direction",
       "type": "string",
       "value": "up"
      }
     ]
    },
    {
     "id": 64,
     "name": "",
     "rotation": 0,
     "type": "",
     "visible": true,
     "x": 192,
     "y": 256,
     "width": 32,
     "height": 64,
     "gid": 1080,
     "properties": [
      {
       "name": "direction",
       "type": "string",
       "value": "down"
      }
     ]
    },
    {
     "id": 65,
     "name": "",
     "rotation": 0,
     "type": "",
     "visible": true,
     "x": 192,
     "y": 352,
     "width": 32,
     "height": 64,
     "gid": 1084,
     "properties": [
      {
       "name": "direction",
       "type": "string",
       "value": "up"
      }
     ]
    },
    {
     "id": 66,
     "name": "",
     "rotation": 0,
     "type": "",
     "visible": true,
     "x": 256,
     "y": 256,
     "width": 32,
     "height": 64,
     "gid": 1080,
     "properties": [
      {
       "name": "direction",
       "type": "string",
       "value": "down"
      }
     ]
    },
    {
     "id": 67,
     "name": "",
     "rotation": 0,
     "type": "",
     "visible": true,
     "x": 256,
     "y": 352,
     "width": 32,
     "height": 64,
     "gid": 1084,
     "properties": [
      {
       "name": "direction",
       "type": "string",
       "value": "up"
      }
     ]
    },
    {
     "id": 128,
     "name": "",
     "rotation": 0,
     "type": "",
     "visible": true,
     "x": 224,
     "y": 768,
     "width": 32,
     "height": 64,
     "gid": 1074,
     "properties": [
      {
       "name": "direction",
       "type": "string",
       "value": "down"
      }
     ]
    },
    {
     "id": 129,
     "name": "",
     "rotation": 0,
     "type": "",
     "visible": true,
     "x": 160,
     "y": 832,
     "width": 32,
     "height": 64,
     "gid": 1078,
     "properties": [
      {
       "name": "direction",
       "type": "string",
       "value": "up"
      }
     ]
    },
    {
     "id": 130,
     "name": "",
     "rotation": 0,
     "type": "",
     "visible": true,
     "x": 288,
     "y": 832,
     "width": 32,
     "height": 64,
     "gid": 1078,
     "properties": [
      {
       "name": "direction",
       "type": "string",
       "value": "up"
      }
     ]
    },
    {
     "id": 255,
     "name": "",
     "rotation": 0,
     "type": "",
     "visible": true,
     "x": 640,
     "y": 352,
     "width": 32,
     "height": 64,
     "gid": 1078,
     "properties": [
      {
       "name": "direction",
       "type": "string",
       "value": "up"
      }
     ]
    },
    {
     "id": 256,
     "name": "",
     "rotation": 0,
     "type": "",
     "visible": true,
     "x": 640,
     "y": 256,
     "width": 32,
     "height": 64,
     "gid": 1074,
     "properties": [
      {
       "name": "direction",
       "type": "string",
       "value": "down"
      }
     ]
    },
    {
     "id": 257,
     "name": "",
     "rotation": 0,
     "type": "",
     "visible": true,
     "x": 832,
     "y": 352,
     "width": 32,
     "height": 64,
     "gid": 1078,
     "properties": [
      {
       "name": "direction",
       "type": "string",
       "value": "up"
      }
     ]
    },
    {
     "id": 258,
     "name": "",
     "rotation": 0,
     "type": "",
     "visible": true,
     "x": 832,
     "y": 256,
     "width": 32,
     "height": 64,
     "gid": 1074,
     "properties": [
      {
       "name": "direction",
       "type": "string",
       "value": "down"
      }
     ]
    },
    {
     "id": 351,
     "name": "",
     "rotation": 0,
     "type": "",
     "visible": true,
     "x": 1088,
     "y": 512,
     "width": 32,
     "height": 64,
     "gid": 1078,
     "properties": [
      {
       "name": "direction",
       "type": "string",
       "value": "up"
      }
     ]
    },
    {
     "id": 352,
     "name": "",
     "rotation": 0,
     "type": "",
     "visible": true,
     "x": 1088,
     "y": 416,
     "width": 32,
     "height": 64,
     "gid": 1074,
     "properties": [
      {
       "name": "direction",
       "type": "string",
       "value": "down"
      }
     ]
    },
    {
     "id": 353,
     "name": "",
     "rotation": 0,
     "type": "",
     "visible": true,
     "x": 1280,
     "y": 512,
     "width": 32,
     "height": 64,
     "gid": 1078,
     "properties": [
      {
       "name": "direction",
       "type": "string",
       "value": "up"
      }
     ]
    },
    {
     "id": 354,
     "name": "",
     "rotation": 0,
     "type": "",
     "visible": true,
     "x": 1280,
     "y": 416,
     "width": 32,
     "height": 64,
     "gid": 1074,
     "properties": [
      {
       "name": "direction",
       "type": "string",
       "value": "down"
      }
     ]
    },
    {
     "id": 447,
     "name": "",
     "rotation": 0,
     "type": "",
     "visible": true,
     "x": 672,
     "y": 736,
     "width": 32,
     "height": 64,
     "gid": 1078,
     "properties": [
      {
       "name": "direction",
       "type": "string",
       "value": "up"
      }
     ]
    },
    {
     "id": 448,
     "name": "",
     "rotation": 0,
     "type": "",
     "visible": true,
     "x": 672,
     "y": 640,
     "width": 32,
     "height": 64,
     "gid": 1074,
     "properties": [
      {
       "name": "direction",
       "type": "string",
       "value": "down"
      }
     ]
    },
    {
     "id": 449,
     "name": "",
     "rotation": 0,
     "type": "",
     "visible": true,
     "x": 864,
     "y": 736,
     "width": 32,
     "height": 64,
     "gid": 1078,
     "properties": [
      {
       "name": "direction",
       "type": "string",
       "value": "up"
      }
     ]
    },
    {
     "id": 450,
     "name": "",
     "rotation": 0,
     "type": "",
     "visible": true,
     "x": 864,
     "y": 640,
     "width": 32,
     "height": 64,
     "gid": 1074,
     "properties": [
      {
       "name": "direction",
       "type": "string",
       "value": "down"
      }
     ]
    },
    {
     "id": 543,
     "name": "",
     "rotation": 0,
     "type": "",
     "visible": true,
     "x": 1120,
     "y": 896,
     "width": 32,
     "height": 64,
     "gid": 1078,
     "properties": [
      {
       "name": "direction",
       "type": "string",
       "value": "up"
      }
     ]
    },
    {
     "id": 544,
     "name": "",
     "rotation": 0,
     "type": "",
     "visible": true,
     "x": 1120,
     "y": 800,
     "width": 32,
     "height": 64,
     "gid": 1074,
     "properties": [
      {
       "name": "direction",
       "type": "string",
       "value": "down"
      }
     ]
    },
    {
     "id": 545,
     "name": "",
     "rotation": 0,
     "type": "",
     "visible": true,
     "x": 1312,
     "y": 896,
     "width": 32,
     "height": 64,
     "gid": 1078,
     "properties": [
      {
       "name": "direction",
       "type": "string",
       "value": "up"
      }
     ]
    },
    {
     "id": 546,
     "name": "",
     "rotation": 0,
     "type": "",
     "visible": true,
     "x": 1312,
     "y": 800,
     "width": 32,
     "height": 64,
     "gid": 1074,
     "properties": [
      {
       "name": "direction",
       "type": "string",
       "value": "down"
      }
     ]
    }
   ],
   "opacity": 1,
   "type": "objectgroup",
   "visible": true,
   "x": 0,
   "y": 0
  },
  {
   "draworder": "topdown",
   "id": 5,
   "name": "Computer",
   "objects": [
    {
     "id": 145,
     "name": "office-desk",
     "rotation": 0,
     "type": "",
     "visible": true,
     "x": 160,
     "y": 704,
     "width": 96,
     "height": 32
    },
    {
     "id": 259,
     "name": "desk-17-7",
     "rotation": 0,
     "type": "",
     "visible": true,
     "x": 576,
     "y": 224,
     "width": 352,
     "height": 32
    },
    {
     "id": 355,
     "name": "desk-31-12",
     "rotation": 0,
     "type": "",
     "visible": true,
     "x": 1024,
     "y": 384,
     "width": 352,
     "height": 32
    },
    {
     "id": 451,
     "name": "desk-18-19",
     "rotation": 0,
     "type": "",
     "visible": true,
     "x": 608,
     "y": 608,
     "width": 352,
     "height": 32
    },
    {
     "id": 547,
     "name": "desk-32-24",
     "rotation": 0,
     "type": "",
     "visible": true,
     "x": 1056,
     "y": 768,
     "width": 352,
     "height": 32
    }
   ],
   "opacity": 1,
   "type": "objectgroup",
   "visible": true,
   "x": 0,
   "y": 0
  },
  {
   "draworder": "topdown",
   "id": 6,
   "name": "Whiteboard",
   "objects": [
    {
     "id": 634,
     "name": "main",
     "rotation": 0,
     "type": "",
     "visible": true,
     "x": 704,
     "y": 0,
     "width": 96,
     "height": 64
    }
   ],
   "opacity": 1,
   "type": "objectgroup",
   "visible": true,
   "x": 0,
   "y": 0
  },
  {
   "draworder": "topdown",
   "id": 7,
   "name": "Speaker",
   "objects": [
    {
     "id": 633,
     "name": "break",
     "rotation": 0,
     "type": "",
     "visible": true,
     "x": 1248,
     "y": 224,
     "width": 32,
     "height": 32
    }
   ],
   "opacity": 1,
   "type": "objectgroup",
   "visible": true,
   "x": 0,
   "y": 0
  },
  {
   "draworder": "topdown",
   "id": 8,
   "name": "Colliders",
   "objects": [
    {
     "id": 1,
     "name": "",
     "rotation": 0,
     "type": "",
     "visible": true,
     "x": 0,
     "y": 0,
     "width": 1536,
     "height": 64
    },
    {
     "id": 2,
     "name": "",
     "rotation": 0,
     "type": "",
     "visible": true,
     "x": 0,
     "y": 992,
     "width": 1536,
     "height": 32
    },
    {
     "id": 3,
     "name": "",
     "rotation": 0,
     "type": "",
     "visible": true,
     "x": 0,
     "y": 0,
     "width": 32,
     "height": 1024
    },
    {
     "id": 4,
     "name": "",
     "rotation": 0,
     "type": "",
     "visible": true,
     "x": 1504,
     "y": 0,
     "width": 32,
     "height": 1024
    },
    {
     "id": 5,
     "name": "",
     "rotation": 0,
     "type": "",
     "visible": true,
     "x": 448,
     "y": 0,
     "width": 32,
     "height": 256
    },
    {
     "id": 6,
     "name": "",
     "rotation": 0,
     "type": "",
     "visible": true,
     "x": 448,
     "y": 320,
     "width": 32,
     "height": 192
    },
    {
     "id": 7,
     "name": "",
     "rotation": 0,
     "type": "",
     "visible": true,
     "x": 448,
     "y": 512,
     "width": 32,
     "height": 256
    },
    {
     "id": 8,
     "name": "",
     "rotation": 0,
     "type": "",
     "visible": true,
     "x": 448,
     "y": 832,
     "width": 32,
     "height": 160
    },
    {
     "id": 9,
     "name": "",
     "rotation": 0,
     "type": "",
     "visible": true,
     "x": 32,
     "y": 512,
     "width": 416,
     "height": 64
    },
    {
     "id": 17,
     "name": "",
     "rotation": 0,
     "type": "",
     "visible": true,
     "x": 32,
     "y": 0,
     "width": 64,
     "height": 96
    },
    {
     "id": 22,
     "name": "",
     "rotation": 0,
     "type": "",
     "visible": true,
     "x": 128,
     "y": 0,
     "width": 64,
     "height": 64
    },
    {
     "id": 27,
     "name": "",
     "rotation": 0,
     "type": "",
     "visible": true,
     "x": 224,
     "y": 0,
     "width": 64,
     "height": 64
    },
    {
     "id": 31,
     "name": "",
     "rotation": 0,
     "type": "",
     "visible": true,
     "x": 352,
     "y": 0,
     "width": 32,
     "height": 96
    },
    {
     "id": 38,
     "name": "",
     "rotation": 0,
     "type": "",
     "visible": true,
     "x": 384,
     "y": 0,
     "width": 64,
     "height": 96
    },
    {
     "id": 60,
     "name": "",
     "rotation": 0,
     "type": "",
     "visible": true,
     "x": 96,
     "y": 224,
     "width": 224,
     "height": 96
    },
    {
     "id": 77,
     "name": "",
     "rotation": 0,
     "type": "",
     "visible": true,
     "x": 32,
     "y": 416,
     "width": 96,
     "height": 96
    },
    {
     "id": 81,
     "name": "",
     "rotation": 0,
     "type": "",
     "visible": true,
     "x": 416,
     "y": 416,
     "width": 32,
     "height": 96
    },
    {
     "id": 85,
     "name": "",
     "rotation": 0,
     "type": "",
     "visible": true,
     "x": 64,
     "y": 512,
     "width": 32,
     "height": 64
    },
    {
     "id": 87,
     "name": "",
     "rotation": 0,
     "type": "",
     "visible": true,
     "x": 128,
     "y": 512,
     "width": 32,
     "height": 64
    },
    {
     "id": 90,
     "name": "",
     "rotation": 0,
     "type": "",
     "visible": true,
     "x": 192,
     "y": 512,
     "width": 32,
     "height": 64
    },
    {
     "id": 98,
     "name": "",
     "rotation": 0,
     "type": "",
     "visible": true,
     "x": 352,
     "y": 576,
     "width": 64,
     "height": 96
    },
    {
     "id": 105,
     "name": "",
     "rotation": 0,
     "type": "",
     "visible": true,
     "x": 256,
     "y": 512,
     "width": 64,
     "height": 96
    },
    {
     "id": 127,
     "name": "",
     "rotation": 0,
     "type": "",
     "visible": true,
     "x": 128,
     "y": 704,
     "width": 192,
     "height": 96
    },
    {
     "id": 140,
     "name": "",
     "rotation": 0,
     "type": "",
     "visible": true,
     "x": 32,
     "y": 896,
     "width": 96,
     "height": 96
    },
    {
     "id": 144,
     "name": "",
     "rotation": 0,
     "type": "",
     "visible": true,
     "x": 416,
     "y": 896,
     "width": 32,
     "height": 96
    },
    {
     "id": 153,
     "name": "",
     "rotation": 0,
     "type": "",
     "visible": true,
     "x": 480,
     "y": 0,
     "width": 64,
     "height": 96
    },
    {
     "id": 158,
     "name": "",
     "rotation": 0,
     "type": "",
     "visible": true,
     "x": 544,
     "y": 0,
     "width": 64,
     "height": 64
    },
    {
     "id": 163,
     "name": "",
     "rotation": 0,
     "type": "",
     "visible": true,
     "x": 960,
     "y": 0,
     "width": 64,
     "height": 64
    },
    {
     "id": 254,
     "name": "",
     "rotation": 0,
     "type": "",
     "visible": true,
     "x": 544,
     "y": 224,
     "width": 416,
     "height": 96
    },
    {
     "id": 350,
     "name": "",
     "rotation": 0,
     "type": "",
     "visible": true,
     "x": 992,
     "y": 384,
     "width": 416,
     "height": 96
    },
    {
     "id": 446,
     "name": "",
     "rotation": 0,
     "type": "",
     "visible": true,
     "x": 576,
     "y": 608,
     "width": 416,
     "height": 96
    },
    {
     "id": 542,
     "name": "",
     "rotation": 0,
     "type": "",
     "visible": true,
     "x": 1024,
     "y": 768,
     "width": 416,
     "height": 96
    },
    {
     "id": 562,
     "name": "",
     "rotation": 0,
     "type": "",
     "visible": true,
     "x": 512,
     "y": 928,
     "width": 160,
     "height": 64
    },
    {
     "id": 566,
     "name": "",
     "rotation": 0,
     "type": "",
     "visible": true,
     "x": 768,
     "y": 896,
     "width": 32,
     "height": 96
    },
    {
     "id": 570,
     "name": "",
     "rotation": 0,
     "type": "",
     "visible": true,
     "x": 1280,
     "y": 896,
     "width": 32,
     "height": 96
    },
    {
     "id": 578,
     "name": "",
     "rotation": 0,
     "type": "",
     "visible": true,
     "x": 1440,
     "y": 512,
     "width": 64,
     "height": 96
    },
    {
     "id": 582,
     "name": "",
     "rotation": 0,
     "type": "",
     "visible": true,
     "x": 1472,
     "y": 320,
     "width": 32,
     "height": 96
    },
    {
     "id": 596,
     "name": "",
     "rotation": 0,
     "type": "",
     "visible": true,
     "x": 1056,
     "y": 0,
     "width": 128,
     "height": 96
    },
    {
     "id": 603,
     "name": "",
     "rotation": 0,
     "type": "",
     "visible": true,
     "x": 1184,
     "y": 0,
     "width": 64,
     "height": 96
    },
    {
     "id": 613,
     "name": "",
     "rotation": 0,
     "type": "",
     "visible": true,
     "x": 1280,
     "y": 0,
     "width": 96,
     "height": 96
    },
    {
     "id": 618,
     "name": "",
     "rotation": 0,
     "type": "",
     "visible": true,
     "x": 1408,
     "y": 0,
     "width": 64,
     "height": 64
    },
    {
     "id": 628,
     "name": "",
     "rotation": 0,
     "type": "",
     "visible": true,
     "x": 1088,
     "y": 96,
     "width": 96,
     "height": 96
    },
    {
     "id": 632,
     "name": "",
     "rotation": 0,
     "type": "",
     "visible": true,
     "x": 1440,
     "y": 96,
     "width": 32,
     "height": 96
    }
   ],
   "opacity": 1,
   "type": "objectgroup",
   "visible": true,
   "x": 0,
   "y": 0
  },
  {
   "draworder": "topdown",
   "id": 9,
   "name": "Zones",
   "objects": [
    {
     "id": 10,
     "name": "meeting",
     "rotation": 0,
     "type": "",
     "visible": true,
     "x": 32,
     "y": 64,
     "width": 416,
     "height": 448
    },
    {
     "id": 82,
     "name": "office",
     "rotation": 0,
     "type": "",
     "visible": true,
     "x": 32,
     "y": 576,
     "width": 416,
     "height": 416
    },
    {
     "id": 146,
     "name": "hall",
     "rotation": 0,
     "type": "",
     "visible": true,
     "x": 480,
     "y": 64,
     "width": 1024,
     "height": 928
    },
    {
     "id": 583,
     "name": "break",
     "rotation": 0,
     "type": "",
     "visible": true,
     "x": 1056,
     "y": 64,
     "width": 448,
     "height": 224
    }
   ],
   "opacity": 1,
   "type": "objectgroup",
   "visible": true,
   "x": 0,
   "y": 0
  },
  {
   "draworder": "topdown",
   "id": 10,
   "name": "Table",
   "objects": [
    {
     "id": 61,
     "name": "",
     "rotation": 0,
     "type": "",
     "visible": true,
     "x": 96,
     "y": 224,
     "width": 224,
     "height": 96
    }
   ],
   "opacity": 1,
   "type": "objectgroup",
   "visible": true,
   "x": 0,
   "y": 0
  }
 ]
}